;FLAVOR:Marlin
;TIME:1367
;Filament used: 0.773901m
;Layer height: 0.28
;MINX:86.5
;MINY:86.5
;MINZ:0.28
;MAXX:148.5
;MAXY:148.5
;MAXZ:2.52
;Generated with Cura_SteamEngine 4.8.0
M82 ;absolute extrusion mode
; Ender 3 Custom Start G-code
G92 E0 ; Reset Extruder
M140 S70 ;set bed temperature
M104 T0 S260.0 ;set hotend temperature
G28 ; Home all axes
G29 ; BLTouch
M190 S70 ;wait for bed temperature

G1 Z2.0 F3000 ; Move Z Axis up little to prevent scratching of Heat Bed
G1 X0.1 Y20 Z0.3 F5000.0 ; Move to start position
G1 X0.1 Y200.0 Z0.3 F1500.0 E15 ; Draw the first line
G1 X0.4 Y200.0 Z0.3 F5000.0 ; Move to side a little
G1 X0.4 Y20 Z0.3 F1500.0 E30 ; Draw the second line
G92 E0 ; Reset Extruder
G1 Z2.0 F3000 ; Move Z Axis up little to prevent scratching of Heat Bed
G1 X5 Y20 Z0.3 F5000.0 ; Move over to prevent blob squish
G92 E0
G92 E0
G1 F1500 E-6.5
;LAYER_COUNT:9
;LAYER:0
M107
G0 F6000 X90.982 Y90.822 Z0.28
;TYPE:SKIRT
G1 F1500 E0
G1 F900 X91.408 Y90.424 E0.02715
G1 X91.653 Y90.212 E0.04223
G1 X92.037 Y89.892 E0.06551
G1 X92.412 Y89.592 E0.08787
G1 X93.169 Y89.038 E0.13155
G1 X93.914 Y88.582 E0.17222
G1 X94.234 Y88.403 E0.1893
G1 X94.611 Y88.202 E0.20919
G1 X94.982 Y88.013 E0.22858
G1 X95.835 Y87.623 E0.27225
G1 X96.622 Y87.337 E0.31124
G1 X96.972 Y87.225 E0.32835
G1 X97.282 Y87.131 E0.34344
G1 X97.685 Y87.015 E0.36297
G1 X98.597 Y86.794 E0.40666
G1 X99.5 Y86.655 E0.4492
G1 X99.865 Y86.614 E0.46631
G1 X100.148 Y86.586 E0.47955
G1 X100.38 Y86.566 E0.49039
G1 X101.095 Y86.527 E0.52373
G1 X102.292 Y86.502 E0.57948
G1 X102.522 Y86.5 E0.59019
G1 X132.793 Y86.5 E1.99974
G1 X133.453 Y86.508 E2.03047
G1 X134.157 Y86.54 E2.06329
G1 X135.029 Y86.608 E2.10402
G1 X135.897 Y86.711 E2.14472
G1 X136.042 Y86.734 E2.15155
G1 X137.359 Y87.026 E2.21437
G1 X137.672 Y87.116 E2.22953
G1 X137.973 Y87.208 E2.24419
G1 X138.362 Y87.332 E2.2632
G1 X139.242 Y87.654 E2.30683
G1 X139.762 Y87.886 E2.33335
G1 X140.135 Y88.07 E2.35271
G1 X140.379 Y88.196 E2.3655
G1 X140.664 Y88.348 E2.38054
G1 X141.052 Y88.563 E2.4012
G1 X141.852 Y89.053 E2.44488
G1 X142.588 Y89.593 E2.48739
G1 X142.892 Y89.836 E2.50551
G1 X143.12 Y90.023 E2.51924
G1 X143.409 Y90.267 E2.53685
G1 X144.333 Y91.143 E2.59614
G1 X144.379 Y91.192 E2.59927
G1 X144.761 Y91.622 E2.62605
G1 X144.919 Y91.809 E2.63745
G1 X145.115 Y92.048 E2.65184
G1 X145.415 Y92.424 E2.67424
G1 X145.969 Y93.181 E2.71792
G1 X146.256 Y93.635 E2.74293
G1 X146.478 Y94.021 E2.76367
G1 X146.63 Y94.297 E2.77834
G1 X146.774 Y94.566 E2.79254
G1 X146.962 Y94.931 E2.81166
G1 X147.462 Y96.052 E2.86882
G1 X147.69 Y96.702 E2.90089
G1 X147.789 Y97.016 E2.91622
G1 X147.871 Y97.288 E2.92945
G1 X147.987 Y97.692 E2.94902
G1 X148.207 Y98.604 E2.99271
G1 X148.345 Y99.497 E3.03478
G1 X148.386 Y99.861 E3.05184
G1 X148.414 Y100.143 E3.06504
G1 X148.434 Y100.374 E3.07583
G1 X148.473 Y101.094 E3.10941
G1 X148.498 Y102.293 E3.16525
G1 X148.5 Y102.522 E3.17591
G1 X148.499 Y132.944 E4.59249
G1 X148.492 Y133.453 E4.61619
G1 X148.46 Y134.157 E4.64901
G1 X148.392 Y135.029 E4.68974
G1 X148.289 Y135.897 E4.73044
G1 X148.266 Y136.042 E4.73727
G1 X147.975 Y137.355 E4.7999
G1 X147.89 Y137.651 E4.81424
G1 X147.792 Y137.972 E4.82986
G1 X147.659 Y138.387 E4.85016
G1 X147.335 Y139.267 E4.89382
G1 X147.09 Y139.812 E4.92165
G1 X146.926 Y140.142 E4.9388
G1 X146.806 Y140.374 E4.95097
G1 X146.681 Y140.609 E4.96336
G1 X146.477 Y140.981 E4.98312
G1 X146.124 Y141.58 E5.01549
G1 X145.423 Y142.568 E5.0719
G1 X145.17 Y142.886 E5.09082
G1 X144.935 Y143.171 E5.10802
G1 X144.699 Y143.448 E5.12497
G1 X143.879 Y144.311 E5.1804
G1 X143.825 Y144.362 E5.18386
G1 X143.373 Y144.766 E5.21209
G1 X143.192 Y144.919 E5.22312
G1 X142.949 Y145.119 E5.23778
G1 X142.574 Y145.418 E5.26011
G1 X141.816 Y145.971 E5.3038
G1 X141.374 Y146.251 E5.32816
G1 X141.017 Y146.457 E5.34736
G1 X140.736 Y146.613 E5.36232
G1 X140.4 Y146.792 E5.38005
G1 X140.028 Y146.982 E5.3995
G1 X139.176 Y147.373 E5.44315
G1 X138.378 Y147.663 E5.48269
G1 X138.028 Y147.775 E5.4998
G1 X137.718 Y147.869 E5.51488
G1 X137.315 Y147.985 E5.53441
G1 X136.403 Y148.206 E5.57811
G1 X135.5 Y148.345 E5.62065
G1 X135.135 Y148.386 E5.63775
G1 X134.852 Y148.414 E5.65099
G1 X134.62 Y148.434 E5.66184
G1 X133.905 Y148.473 E5.69518
G1 X132.708 Y148.498 E5.75093
G1 X132.478 Y148.5 E5.76164
G1 X102.056 Y148.499 E7.17821
G1 X101.547 Y148.492 E7.20192
G1 X100.843 Y148.46 E7.23473
G1 X99.971 Y148.392 E7.27546
G1 X99.103 Y148.289 E7.31616
G1 X98.958 Y148.266 E7.323
G1 X97.641 Y147.974 E7.38581
G1 X97.328 Y147.884 E7.40098
G1 X97.027 Y147.792 E7.41563
G1 X96.638 Y147.668 E7.43464
G1 X95.758 Y147.346 E7.47828
G1 X95.238 Y147.114 E7.50479
G1 X94.836 Y146.915 E7.52568
G1 X94.588 Y146.786 E7.5387
G1 X94.339 Y146.652 E7.55186
G1 X93.954 Y146.439 E7.57235
G1 X93.153 Y145.951 E7.61602
G1 X92.421 Y145.414 E7.6583
G1 X92.105 Y145.162 E7.67712
G1 X91.847 Y144.95 E7.69267
G1 X91.57 Y144.715 E7.70958
G1 X90.603 Y143.788 E7.77196
G1 X90.543 Y143.723 E7.77608
G1 X90.212 Y143.347 E7.7994
G1 X90.068 Y143.176 E7.80981
G1 X89.877 Y142.943 E7.82384
G1 X89.576 Y142.565 E7.84634
G1 X89.024 Y141.807 E7.89
G1 X88.722 Y141.327 E7.91641
G1 X88.511 Y140.961 E7.93608
G1 X88.354 Y140.675 E7.95127
G1 X88.202 Y140.389 E7.96636
G1 X88.019 Y140.031 E7.98508
G1 X87.629 Y139.178 E8.02875
G1 X87.343 Y138.394 E8.06761
G1 X87.231 Y138.046 E8.08463
G1 X87.129 Y137.712 E8.10089
G1 X87.013 Y137.308 E8.12047
G1 X86.793 Y136.396 E8.16415
G1 X86.656 Y135.509 E8.20594
G1 X86.613 Y135.129 E8.22375
G1 X86.581 Y134.81 E8.23868
G1 X86.563 Y134.595 E8.24873
G1 X86.527 Y133.906 E8.28085
G1 X86.502 Y132.707 E8.3367
G1 X86.5 Y132.478 E8.34736
G1 X86.501 Y102.056 E9.76393
G1 X86.508 Y101.547 E9.78764
G1 X86.54 Y100.843 E9.82045
G1 X86.608 Y99.971 E9.86118
G1 X86.711 Y99.103 E9.90188
G1 X86.734 Y98.958 E9.90872
G1 X87.026 Y97.641 E9.97153
G1 X87.116 Y97.328 E9.9867
G1 X87.205 Y97.035 E10.00096
G1 X87.329 Y96.645 E10.02001
G1 X87.651 Y95.764 E10.06369
G1 X88.009 Y94.987 E10.10352
G1 X88.176 Y94.659 E10.12066
G1 X88.363 Y94.308 E10.13918
G1 X88.568 Y93.939 E10.15884
G1 X89.058 Y93.139 E10.20252
G1 X89.589 Y92.416 E10.24429
G1 X89.843 Y92.098 E10.26324
G1 X90.088 Y91.802 E10.28113
G1 X90.341 Y91.507 E10.29923
G1 X90.982 Y90.822 E10.34291
G0 F6000 X91.274 Y91.095
G1 F900 X91.675 Y90.722 E10.36842
G1 X91.91 Y90.518 E10.38291
G1 X92.081 Y90.374 E10.39332
G1 X92.287 Y90.205 E10.40572
G1 X92.662 Y89.905 E10.42809
G1 X93.405 Y89.361 E10.47096
G1 X94.109 Y88.931 E10.50938
G1 X94.429 Y88.752 E10.52645
G1 X94.792 Y88.558 E10.54562
G1 X95.163 Y88.369 E10.565
G1 X96.001 Y87.987 E10.60789
G1 X96.744 Y87.718 E10.64468
G1 X97.094 Y87.606 E10.66179
G1 X97.393 Y87.516 E10.67633
G1 X97.796 Y87.4 E10.69586
G1 X98.691 Y87.184 E10.73873
G1 X99.545 Y87.052 E10.77897
G1 X99.91 Y87.011 E10.79607
G1 X100.183 Y86.984 E10.80885
G1 X100.415 Y86.964 E10.81969
G1 X101.104 Y86.927 E10.85182
G1 X102.301 Y86.902 E10.90757
G1 X102.522 Y86.9 E10.91786
G1 X132.793 Y86.9 E12.3274
G1 X133.448 Y86.908 E12.35791
G1 X134.126 Y86.939 E12.38951
G1 X134.998 Y87.007 E12.43024
G1 X135.835 Y87.106 E12.46948
G1 X135.98 Y87.129 E12.47632
G1 X137.248 Y87.411 E12.5368
G1 X137.561 Y87.501 E12.55197
G1 X137.851 Y87.589 E12.56608
G1 X138.24 Y87.713 E12.58509
G1 X139.105 Y88.03 E12.62799
G1 X139.589 Y88.247 E12.65269
G1 X139.952 Y88.426 E12.67153
G1 X140.196 Y88.552 E12.68432
G1 X140.47 Y88.698 E12.69878
G1 X140.858 Y88.913 E12.71943
G1 X141.643 Y89.394 E12.7623
G1 X142.338 Y89.905 E12.80247
G1 X142.642 Y90.148 E12.82059
G1 X142.862 Y90.329 E12.83386
G1 X143.151 Y90.573 E12.85147
G1 X144.041 Y91.417 E12.90858
G1 X144.087 Y91.466 E12.91171
G1 X144.456 Y91.88 E12.93754
G1 X144.614 Y92.067 E12.94894
G1 X144.803 Y92.297 E12.9628
G1 X145.103 Y92.673 E12.9852
G1 X145.888 Y93.799 E13.04911
G1 X146.128 Y94.213 E13.07139
G1 X146.28 Y94.489 E13.08607
G1 X146.418 Y94.749 E13.09977
G1 X146.606 Y95.114 E13.11889
G1 X147.089 Y96.194 E13.17398
G1 X147.308 Y96.823 E13.20499
G1 X147.407 Y97.137 E13.22032
G1 X147.486 Y97.399 E13.23307
G1 X147.602 Y97.803 E13.25264
G1 X147.818 Y98.698 E13.29551
G1 X147.947 Y99.542 E13.33527
G1 X147.988 Y99.906 E13.35232
G1 X148.015 Y100.178 E13.36505
G1 X148.035 Y100.409 E13.37585
G1 X148.073 Y101.102 E13.40816
G1 X148.098 Y102.301 E13.46401
G1 X148.1 Y102.522 E13.4743
G1 X148.099 Y132.939 E14.89064
G1 X148.092 Y133.448 E14.91434
G1 X148.061 Y134.126 E14.94595
G1 X147.993 Y134.998 E14.98668
G1 X147.894 Y135.835 E15.02592
G1 X147.871 Y135.98 E15.03276
G1 X147.59 Y137.245 E15.0931
G1 X147.505 Y137.541 E15.10744
G1 X147.411 Y137.85 E15.12248
G1 X147.278 Y138.265 E15.14277
G1 X146.959 Y139.129 E15.18565
G1 X146.73 Y139.638 E15.21164
G1 X146.571 Y139.958 E15.22828
G1 X146.451 Y140.19 E15.24045
G1 X146.33 Y140.417 E15.25242
G1 X146.126 Y140.789 E15.27218
G1 X145.785 Y141.367 E15.30343
G1 X145.11 Y142.318 E15.35773
G1 X144.857 Y142.636 E15.37665
G1 X144.631 Y142.911 E15.39323
G1 X144.395 Y143.188 E15.41017
G1 X143.604 Y144.02 E15.46363
G1 X143.55 Y144.071 E15.46709
G1 X143.115 Y144.46 E15.49426
G1 X142.934 Y144.613 E15.5053
G1 X142.699 Y144.806 E15.51946
G1 X142.324 Y145.105 E15.54179
G1 X141.205 Y145.885 E15.6053
G1 X140.823 Y146.108 E15.6259
G1 X140.542 Y146.264 E15.64087
G1 X140.218 Y146.436 E15.65795
G1 X139.846 Y146.626 E15.6774
G1 X139.009 Y147.009 E15.72026
G1 X138.256 Y147.282 E15.75755
G1 X137.906 Y147.394 E15.77466
G1 X137.607 Y147.484 E15.7892
G1 X137.204 Y147.6 E15.80873
G1 X136.309 Y147.816 E15.8516
G1 X135.455 Y147.948 E15.89184
G1 X135.09 Y147.989 E15.90894
G1 X134.817 Y148.016 E15.92172
G1 X134.585 Y148.036 E15.93256
G1 X133.896 Y148.073 E15.96469
G1 X132.699 Y148.098 E16.02044
G1 X132.478 Y148.1 E16.03073
G1 X102.061 Y148.099 E17.44707
G1 X101.552 Y148.092 E17.47078
G1 X100.874 Y148.061 E17.50238
G1 X100.002 Y147.993 E17.54311
G1 X99.165 Y147.894 E17.58235
G1 X99.02 Y147.871 E17.58919
G1 X97.752 Y147.589 E17.64968
G1 X97.439 Y147.499 E17.66484
G1 X97.149 Y147.411 E17.67895
G1 X96.76 Y147.287 E17.69796
G1 X95.895 Y146.97 E17.74086
G1 X95.411 Y146.753 E17.76556
G1 X95.02 Y146.56 E17.78586
G1 X94.772 Y146.431 E17.79888
G1 X94.533 Y146.302 E17.81153
G1 X94.148 Y146.089 E17.83202
G1 X93.362 Y145.609 E17.8749
G1 X92.67 Y145.101 E17.91487
G1 X92.354 Y144.849 E17.93369
G1 X92.106 Y144.645 E17.94865
G1 X91.829 Y144.41 E17.96556
G1 X90.897 Y143.517 E18.02566
G1 X90.837 Y143.452 E18.02978
G1 X90.518 Y143.09 E18.05225
G1 X90.374 Y142.919 E18.06266
G1 X90.19 Y142.694 E18.07619
G1 X89.889 Y142.316 E18.09869
G1 X89.347 Y141.572 E18.14156
G1 X89.065 Y141.122 E18.16628
G1 X88.862 Y140.769 E18.18524
G1 X88.705 Y140.483 E18.20044
G1 X88.559 Y140.207 E18.21498
G1 X88.376 Y139.849 E18.2337
G1 X87.993 Y139.011 E18.2766
G1 X87.724 Y138.271 E18.31326
G1 X87.612 Y137.923 E18.33029
G1 X87.514 Y137.601 E18.34596
G1 X87.398 Y137.197 E18.36553
G1 X87.182 Y136.302 E18.4084
G1 X87.053 Y135.464 E18.44788
G1 X87.01 Y135.084 E18.46569
G1 X86.98 Y134.776 E18.4801
G1 X86.962 Y134.561 E18.49015
G1 X86.927 Y133.898 E18.52106
G1 X86.902 Y132.699 E18.5769
G1 X86.9 Y132.478 E18.5872
G1 X86.901 Y102.061 E20.00354
G1 X86.908 Y101.552 E20.02724
G1 X86.939 Y100.874 E20.05885
G1 X87.007 Y100.002 E20.09957
G1 X87.106 Y99.165 E20.13882
G1 X87.129 Y99.02 E20.14566
G1 X87.411 Y97.752 E20.20614
G1 X87.501 Y97.439 E20.22131
G1 X87.586 Y97.156 E20.23507
G1 X87.71 Y96.766 E20.25412
G1 X88.027 Y95.902 E20.29698
G1 X88.366 Y95.169 E20.33458
G1 X88.533 Y94.841 E20.35172
G1 X88.713 Y94.502 E20.36959
G1 X88.918 Y94.133 E20.38925
G1 X89.4 Y93.349 E20.4321
G1 X89.902 Y92.666 E20.47157
G1 X90.156 Y92.348 E20.49052
G1 X90.392 Y92.062 E20.50779
G1 X90.645 Y91.767 E20.52588
G1 X91.274 Y91.095 E20.56874
G0 F6000 X91.894 Y91.062
G1 F900 X92.168 Y90.824 E20.58564
G1 X92.537 Y90.517 E20.60799
G1 X92.912 Y90.217 E20.63036
G1 X93.642 Y89.685 E20.67242
G1 X94.304 Y89.28 E20.70855
G1 X94.624 Y89.101 E20.72563
G1 X94.974 Y88.914 E20.7441
G1 X95.345 Y88.725 E20.76349
G1 X96.167 Y88.351 E20.80554
G1 X96.866 Y88.099 E20.84014
G1 X97.216 Y87.987 E20.85725
G1 X97.504 Y87.9 E20.87126
G1 X97.907 Y87.784 E20.89079
G1 X98.785 Y87.573 E20.93284
G1 X99.589 Y87.45 E20.97071
G1 X99.954 Y87.409 E20.98781
G1 X100.217 Y87.383 E21.00012
G1 X100.449 Y87.363 E21.01096
G1 X101.112 Y87.327 E21.04188
G1 X102.309 Y87.302 E21.09763
G1 X102.522 Y87.3 E21.10755
G1 X132.793 Y87.3 E22.51709
G1 X133.442 Y87.308 E22.54732
G1 X134.095 Y87.338 E22.57775
G1 X134.967 Y87.406 E22.61848
G1 X135.772 Y87.501 E22.65623
G1 X135.917 Y87.524 E22.66306
G1 X137.138 Y87.795 E22.7213
G1 X137.451 Y87.885 E22.73647
G1 X137.73 Y87.97 E22.75005
G1 X138.119 Y88.094 E22.76906
G1 X138.966 Y88.406 E22.81109
G1 X139.417 Y88.608 E22.8341
G1 X139.768 Y88.781 E22.85232
G1 X140.012 Y88.907 E22.86511
G1 X140.276 Y89.048 E22.87904
G1 X140.664 Y89.263 E22.8997
G1 X141.434 Y89.735 E22.94175
G1 X142.089 Y90.218 E22.97965
G1 X142.393 Y90.461 E22.99777
G1 X142.604 Y90.634 E23.01048
G1 X142.893 Y90.878 E23.02809
G1 X143.75 Y91.691 E23.08309
G1 X143.796 Y91.74 E23.08622
G1 X144.15 Y92.138 E23.11103
G1 X144.308 Y92.325 E23.12243
G1 X144.49 Y92.546 E23.13576
G1 X144.79 Y92.922 E23.15815
G1 X145.545 Y94.006 E23.21967
G1 X145.778 Y94.406 E23.24122
G1 X145.93 Y94.682 E23.25589
G1 X146.063 Y94.932 E23.26908
G1 X146.251 Y95.297 E23.2882
G1 X146.715 Y96.337 E23.34123
G1 X146.927 Y96.943 E23.37112
G1 X147.026 Y97.257 E23.38645
G1 X147.102 Y97.509 E23.39871
G1 X147.218 Y97.913 E23.41828
G1 X147.428 Y98.791 E23.46032
G1 X147.55 Y99.586 E23.49777
G1 X147.591 Y99.95 E23.51482
G1 X147.617 Y100.212 E23.52708
G1 X147.637 Y100.443 E23.53788
G1 X147.673 Y101.11 E23.56898
G1 X147.698 Y102.309 E23.62483
G1 X147.7 Y102.522 E23.63474
G1 X147.699 Y132.933 E25.05081
G1 X147.692 Y133.442 E25.07451
G1 X147.662 Y134.095 E25.10495
G1 X147.594 Y134.967 E25.14568
G1 X147.499 Y135.772 E25.18342
G1 X147.476 Y135.917 E25.19026
G1 X147.206 Y137.134 E25.2483
G1 X147.121 Y137.43 E25.26264
G1 X147.03 Y137.728 E25.27715
G1 X146.897 Y138.143 E25.29745
G1 X146.584 Y138.99 E25.33949
G1 X146.37 Y139.464 E25.36371
G1 X146.216 Y139.774 E25.37983
G1 X146.096 Y140.006 E25.39199
G1 X145.775 Y140.596 E25.42326
G1 X145.447 Y141.154 E25.4534
G1 X144.797 Y142.069 E25.50567
G1 X144.544 Y142.387 E25.52459
G1 X144.326 Y142.652 E25.54057
G1 X144.09 Y142.929 E25.55751
G1 X143.33 Y143.73 E25.60893
G1 X143.276 Y143.781 E25.61239
G1 X142.857 Y144.155 E25.63854
G1 X142.676 Y144.308 E25.64957
G1 X142.45 Y144.493 E25.66317
G1 X142.075 Y144.792 E25.68551
G1 X140.998 Y145.543 E25.74664
G1 X140.629 Y145.758 E25.76653
G1 X140.348 Y145.914 E25.7815
G1 X140.037 Y146.08 E25.79791
G1 X139.665 Y146.27 E25.81736
G1 X138.843 Y146.645 E25.85943
G1 X138.134 Y146.901 E25.89453
G1 X137.784 Y147.013 E25.91164
G1 X137.496 Y147.1 E25.92565
G1 X137.093 Y147.216 E25.94518
G1 X136.215 Y147.427 E25.98723
G1 X135.411 Y147.55 E26.0251
G1 X135.046 Y147.591 E26.0422
G1 X134.783 Y147.617 E26.05451
G1 X134.551 Y147.637 E26.06535
G1 X133.888 Y147.673 E26.09627
G1 X132.691 Y147.698 E26.15202
G1 X132.478 Y147.7 E26.16194
G1 X102.067 Y147.699 E27.578
G1 X101.558 Y147.692 E27.6017
G1 X100.905 Y147.662 E27.63214
G1 X100.033 Y147.594 E27.67287
G1 X99.228 Y147.499 E27.71061
G1 X99.083 Y147.476 E27.71745
G1 X97.862 Y147.205 E27.77569
G1 X97.549 Y147.115 E27.79085
G1 X97.27 Y147.03 E27.80444
G1 X96.881 Y146.906 E27.82345
G1 X96.034 Y146.594 E27.86548
G1 X95.583 Y146.392 E27.88849
G1 X95.205 Y146.205 E27.90813
G1 X94.957 Y146.076 E27.92114
G1 X94.726 Y145.952 E27.93335
G1 X94.341 Y145.739 E27.95384
G1 X93.571 Y145.267 E27.99589
G1 X92.919 Y144.789 E28.03354
G1 X92.603 Y144.537 E28.05236
G1 X92.364 Y144.34 E28.06678
G1 X92.087 Y144.105 E28.08369
G1 X91.191 Y143.245 E28.14152
G1 X91.131 Y143.18 E28.14564
G1 X90.824 Y142.832 E28.16725
G1 X90.68 Y142.661 E28.17766
G1 X90.503 Y142.445 E28.19067
G1 X90.202 Y142.067 E28.21317
G1 X89.435 Y140.961 E28.27584
G1 X89.213 Y140.576 E28.29653
G1 X89.056 Y140.29 E28.31172
G1 X88.915 Y140.025 E28.3257
G1 X88.732 Y139.667 E28.34442
G1 X88.357 Y138.845 E28.38649
G1 X88.104 Y138.149 E28.42098
G1 X87.992 Y137.801 E28.438
G1 X87.898 Y137.491 E28.45308
G1 X87.782 Y137.087 E28.47266
