;FLAVOR:Marlin
;TIME:8258
;Filament used: 7.62498m
;Layer height: 0.28
;MINX:1.137
;MINY:1.725
;MINZ:0.28
;MAXX:194.939
;MAXY:219.235
;MAXZ:4.76
;Generated with Cura_SteamEngine 4.7.0
M82 ;absolute extrusion mode
; Ender 3 Custom Start G-code
G92 E0 ; Reset Extruder
M140 S70 ;set bed temperature
M104 T0 S260 ;set hotend temperature
G28 ; Home all axes
G29 ; BLTouch
M190 S70 ;wait for bed temperature

G1 Z2.0 F3000 ; Move Z Axis up little to prevent scratching of Heat Bed
G1 X0.1 Y20 Z0.3 F5000.0 ; Move to start position
G1 X0.1 Y200.0 Z0.3 F1500.0 E15 ; Draw the first line
G1 X0.4 Y200.0 Z0.3 F5000.0 ; Move to side a little
G1 X0.4 Y20 Z0.3 F1500.0 E30 ; Draw the second line
G92 E0 ; Reset Extruder
G1 Z2.0 F3000 ; Move Z Axis up little to prevent scratching of Heat Bed
G1 X5 Y20 Z0.3 F5000.0 ; Move over to prevent blob squish
G92 E0
G92 E0
G1 F1500 E-6.5
;LAYER_COUNT:17
;LAYER:0
M107
G0 F6000 X7.667 Y7.527 Z0.28
;TYPE:SKIRT
G1 F1500 E0
G1 F900 X7.901 Y7.314 E0.01473
G1 X8.161 Y7.086 E0.03084
G1 X8.696 Y6.63 E0.06357
G1 X9.254 Y6.168 E0.0973
G1 X10.246 Y5.437 E0.15468
G1 X10.544 Y5.242 E0.17126
G1 X10.822 Y5.066 E0.18658
G1 X11.409 Y4.707 E0.21862
G1 X11.993 Y4.361 E0.25023
G1 X12.496 Y4.081 E0.27704
G1 X13.179 Y3.751 E0.31236
G1 X13.519 Y3.601 E0.32966
G1 X13.749 Y3.503 E0.3413
G1 X14.299 Y3.276 E0.36901
G1 X14.955 Y3.014 E0.4019
G1 X15.574 Y2.787 E0.4326
G1 X16.203 Y2.599 E0.46317
G1 X16.572 Y2.5 E0.48096
G1 X16.848 Y2.429 E0.49423
G1 X17.305 Y2.319 E0.51612
G1 X18.156 Y2.127 E0.55674
G1 X19.422 Y1.918 E0.61649
G1 X19.812 Y1.877 E0.63475
G1 X20.107 Y1.85 E0.64854
G1 X20.699 Y1.805 E0.67619
G1 X21.453 Y1.757 E0.71137
G1 X21.703 Y1.744 E0.72303
G1 X21.85 Y1.738 E0.72988
G1 X22.185 Y1.73 E0.74548
G1 X22.684 Y1.725 E0.76872
G1 X139.18 Y1.725 E6.19326
G1 X139.337 Y1.726 E6.20057
G1 X140.039 Y1.736 E6.23326
G1 X140.975 Y1.789 E6.27692
G1 X141.903 Y1.922 E6.32057
G1 X142.817 Y2.134 E6.36426
G1 X143.71 Y2.422 E6.40795
G1 X144.574 Y2.786 E6.4516
G1 X145.405 Y3.222 E6.4953
G1 X146.195 Y3.727 E6.53896
G1 X146.939 Y4.297 E6.5826
G1 X147.632 Y4.929 E6.62628
G1 X148.438 Y5.822 E6.68229
G1 X148.923 Y6.422 E6.71822
G1 X150.615 Y8.456 E6.84141
G1 X152.293 Y10.359 E6.95955
G1 X153.982 Y12.172 E7.07493
G1 X155.747 Y13.96 E7.19192
G1 X157.576 Y15.712 E7.30985
G1 X159.44 Y17.399 E7.42692
G1 X161.361 Y19.04 E7.54456
G1 X163.316 Y20.618 E7.66155
G1 X165.326 Y22.147 E7.77915
G1 X167.379 Y23.62 E7.8968
G1 X169.437 Y25.01 E8.01244
G1 X171.569 Y26.364 E8.13005
G1 X173.759 Y27.669 E8.24875
G1 X175.918 Y28.874 E8.36388
G1 X178.173 Y30.051 E8.48233
G1 X180.449 Y31.158 E8.60018
G1 X182.778 Y32.205 E8.71908
G1 X182.966 Y32.291 E8.72871
G1 X183.184 Y32.394 E8.73994
G1 X183.96 Y32.799 E8.78069
G1 X184.197 Y32.935 E8.79342
G1 X184.498 Y33.113 E8.8097
G1 X184.957 Y33.394 E8.83476
G1 X185.689 Y33.856 E8.87507
G1 X186.693 Y34.573 E8.93252
G1 X186.93 Y34.763 E8.94666
G1 X187.18 Y34.969 E8.96174
G1 X187.57 Y35.301 E8.98559
G1 X187.711 Y35.423 E8.99428
G1 X188.282 Y35.926 E9.02971
G1 X189.171 Y36.803 E9.08786
G1 X189.369 Y37.022 E9.1016
G1 X189.653 Y37.346 E9.12167
G1 X190.04 Y37.801 E9.14948
G1 X190.485 Y38.338 E9.18195
G1 X191.189 Y39.288 E9.23701
G1 X191.361 Y39.548 E9.25153
G1 X191.559 Y39.858 E9.26866
G1 X191.865 Y40.356 E9.29587
G1 X192.298 Y41.084 E9.33532
G1 X192.842 Y42.124 E9.38997
G1 X192.969 Y42.402 E9.4042
G1 X193.125 Y42.76 E9.42238
G1 X193.399 Y43.422 E9.45574
G1 X193.658 Y44.072 E9.48833
G1 X194.047 Y45.234 E9.54538
G1 X194.123 Y45.511 E9.55876
G1 X194.204 Y45.826 E9.5739
G1 X194.381 Y46.558 E9.60897
G1 X194.537 Y47.25 E9.642
G1 X194.746 Y48.522 E9.70203
G1 X194.787 Y48.913 E9.72033
G1 X194.814 Y49.205 E9.73399
G1 X194.858 Y49.783 E9.76098
G1 X194.906 Y50.522 E9.79546
G1 X194.921 Y50.828 E9.80973
G1 X194.927 Y50.99 E9.81728
G1 X194.934 Y51.283 E9.83092
G1 X194.939 Y51.782 E9.85416
G1 X194.939 Y197.528 E16.64071
G1 X194.928 Y198.39 E16.68085
G1 X194.919 Y198.705 E16.69552
G1 X194.9 Y199.09 E16.71347
G1 X194.873 Y199.504 E16.73279
G1 X194.835 Y199.993 E16.75563
G1 X194.82 Y200.166 E16.76371
G1 X194.757 Y200.833 E16.79491
G1 X194.568 Y202.076 E16.85345
G1 X194.491 Y202.44 E16.87078
G1 X194.426 Y202.727 E16.88448
G1 X194.31 Y203.211 E16.90766
G1 X194.101 Y204.034 E16.94719
G1 X193.732 Y205.204 E17.00432
G1 X193.614 Y205.516 E17.01985
G1 X193.49 Y205.828 E17.03549
G1 X193.224 Y206.468 E17.06776
G1 X192.928 Y207.152 E17.10246
G1 X192.381 Y208.245 E17.15938
G1 X192.238 Y208.495 E17.17279
G1 X192.07 Y208.779 E17.18815
G1 X191.706 Y209.371 E17.22051
G1 X191.318 Y209.985 E17.25433
G1 X190.601 Y210.989 E17.31178
G1 X190.411 Y211.226 E17.32592
G1 X190.205 Y211.476 E17.34101
G1 X189.873 Y211.866 E17.36486
G1 X189.752 Y212.006 E17.37347
G1 X189.25 Y212.576 E17.40884
G1 X188.373 Y213.464 E17.46696
G1 X188.122 Y213.691 E17.48271
G1 X187.899 Y213.888 E17.49657
G1 X187.372 Y214.338 E17.52884
G1 X186.862 Y214.762 E17.55972
G1 X185.914 Y215.467 E17.61473
G1 X185.67 Y215.629 E17.62837
G1 X185.407 Y215.798 E17.64293
G1 X185.146 Y215.961 E17.65726
G1 X184.686 Y216.242 E17.68235
G1 X184.093 Y216.594 E17.71447
G1 X182.954 Y217.183 E17.77417
G1 X182.624 Y217.33 E17.791
G1 X182.361 Y217.443 E17.80432
G1 X181.767 Y217.689 E17.83426
G1 X181.094 Y217.957 E17.86799
G1 X179.867 Y218.363 E17.92817
G1 X179.497 Y218.462 E17.94601
G1 X179.228 Y218.531 E17.95894
G1 X178.771 Y218.641 E17.98083
G1 X177.92 Y218.833 E18.02145
G1 X176.654 Y219.042 E18.0812
G1 X176.264 Y219.083 E18.09946
G1 X175.969 Y219.11 E18.11325
G1 X175.377 Y219.155 E18.1409
G1 X174.623 Y219.203 E18.17608
G1 X174.373 Y219.216 E18.18773
G1 X174.226 Y219.222 E18.19459
G1 X173.891 Y219.23 E18.21019
G1 X173.392 Y219.235 E18.23343
G1 X56.896 Y219.235 E23.65797
G1 X56.739 Y219.234 E23.66528
G1 X56.038 Y219.224 E23.69792
G1 X55.102 Y219.171 E23.74158
G1 X54.173 Y219.038 E23.78528
G1 X53.26 Y218.826 E23.82892
G1 X52.367 Y218.538 E23.87261
G1 X51.503 Y218.174 E23.91627
G1 X50.672 Y217.738 E23.95996
G1 X49.882 Y217.233 E24.00362
G1 X49.138 Y216.663 E24.04727
G1 X48.445 Y216.031 E24.09094
G1 X47.64 Y215.14 E24.14685
G1 X47.149 Y214.533 E24.18321
G1 X45.467 Y212.512 E24.30564
G1 X43.81 Y210.63 E24.4224
G1 X42.108 Y208.803 E24.53867
G1 X40.346 Y207.015 E24.65556
G1 X38.522 Y205.268 E24.77316
G1 X36.618 Y203.544 E24.89277
G1 X34.759 Y201.955 E25.00664
G1 X32.763 Y200.343 E25.12611
G1 X30.78 Y198.834 E25.24214
G1 X28.74 Y197.369 E25.35909
G1 X26.64 Y195.95 E25.4771
G1 X24.531 Y194.609 E25.59348
G1 X22.359 Y193.315 E25.7112
G1 X20.144 Y192.078 E25.82934
G1 X17.936 Y190.924 E25.94535
G1 X15.657 Y189.816 E26.06334
G1 X13.212 Y188.715 E26.1882
G1 X13.024 Y188.629 E26.19783
G1 X12.094 Y188.149 E26.24656
G1 X11.68 Y187.908 E26.26887
G1 X11.463 Y187.777 E26.28067
G1 X11.005 Y187.494 E26.30574
G1 X10.392 Y187.107 E26.3395
G1 X9.379 Y186.385 E26.39742
G1 X9.141 Y186.194 E26.41163
G1 X8.896 Y185.991 E26.42645
G1 X8.506 Y185.659 E26.4503
G1 X8.364 Y185.536 E26.45904
G1 X7.792 Y185.032 E26.49454
G1 X6.931 Y184.186 E26.55075
G1 X6.727 Y183.962 E26.56486
G1 X6.495 Y183.698 E26.58122
G1 X6.042 Y183.166 E26.61376
G1 X5.58 Y182.608 E26.64749
G1 X4.861 Y181.635 E26.70383
G1 X4.673 Y181.349 E26.71976
G1 X4.481 Y181.047 E26.73643
G1 X4.116 Y180.448 E26.76909
G1 X3.771 Y179.865 E26.80063
G1 X3.494 Y179.367 E26.82717
G1 X3.183 Y178.727 E26.8603
G1 X3.009 Y178.335 E26.88027
G1 X2.915 Y178.114 E26.89145
G1 X2.722 Y177.649 E26.9149
G1 X2.412 Y176.87 E26.95394
G1 X2.005 Y175.639 E27.01431
G1 X1.906 Y175.267 E27.03224
G1 X1.84 Y175.007 E27.04473
G1 X1.697 Y174.406 E27.07349
G1 X1.541 Y173.716 E27.10643
G1 X1.337 Y172.505 E27.16362
G1 X1.305 Y172.217 E27.17711
G1 X1.273 Y171.878 E27.19296
G1 X1.217 Y171.163 E27.22636
G1 X1.169 Y170.409 E27.26154
G1 X1.156 Y170.162 E27.27306
G1 X1.15 Y170.016 E27.27986
G1 X1.142 Y169.678 E27.2956
G1 X1.137 Y169.179 E27.31884
G1 X1.137 Y23.432 E34.10543
G1 X1.148 Y22.57 E34.14557
G1 X1.157 Y22.255 E34.16025
G1 X1.163 Y22.115 E34.16677
G1 X1.178 Y21.845 E34.17936
G1 X1.218 Y21.257 E34.20681
G1 X1.243 Y20.942 E34.22152
G1 X1.318 Y20.136 E34.25921
G1 X1.504 Y18.902 E34.31732
G1 X1.565 Y18.611 E34.33117
G1 X1.636 Y18.295 E34.34625
G1 X1.776 Y17.713 E34.37412
G1 X1.974 Y16.936 E34.41146
G1 X2.114 Y16.437 E34.43559
G1 X2.361 Y15.712 E34.47126
G1 X2.484 Y15.389 E34.48735
G1 X2.598 Y15.102 E34.50173
G1 X2.796 Y14.623 E34.52586
G1 X3.149 Y13.805 E34.56735
G1 X3.707 Y12.692 E34.62532
G1 X3.841 Y12.459 E34.63784
G1 X3.983 Y12.219 E34.65082
G1 X4.284 Y11.725 E34.67776
G1 X4.39 Y11.555 E34.68709
G1 X4.772 Y10.953 E34.72029
G1 X5.481 Y9.962 E34.77703
G1 X5.668 Y9.729 E34.79094
G1 X5.873 Y9.482 E34.80589
G1 X6.31 Y8.97 E34.83723
G1 X6.802 Y8.409 E34.87197
G1 X7.667 Y7.527 E34.9295
G0 F6000 X7.937 Y7.823
G1 F900 X8.171 Y7.61 E34.94423
G1 X8.421 Y7.39 E34.95974
G1 X8.951 Y6.938 E34.99217
G1 X9.509 Y6.476 E35.02591
G1 X10.465 Y5.771 E35.08122
G1 X10.763 Y5.576 E35.0978
G1 X11.031 Y5.407 E35.11255
G1 X11.613 Y5.051 E35.14432
G1 X12.197 Y4.705 E35.17593
G1 X12.682 Y4.435 E35.20178
G1 X13.34 Y4.117 E35.23581
G1 X13.68 Y3.967 E35.25311
G1 X13.902 Y3.872 E35.26436
G1 X14.447 Y3.647 E35.29181
G1 X15.103 Y3.385 E35.3247
G1 X15.701 Y3.167 E35.35434
G1 X16.306 Y2.985 E35.38376
G1 X16.675 Y2.886 E35.40155
G1 X16.941 Y2.818 E35.41433
G1 X17.398 Y2.708 E35.43622
G1 X18.244 Y2.517 E35.47661
G1 X19.464 Y2.316 E35.53418
G1 X19.854 Y2.275 E35.55244
G1 X20.138 Y2.249 E35.56572
G1 X20.725 Y2.204 E35.59313
G1 X21.479 Y2.156 E35.62831
G1 X21.867 Y2.138 E35.6464
G1 X22.189 Y2.13 E35.6614
G1 X22.684 Y2.125 E35.68445
G1 X139.18 Y2.125 E41.10899
G1 X140.033 Y2.136 E41.14871
G1 X140.952 Y2.189 E41.19158
G1 X141.863 Y2.322 E41.23445
G1 X142.759 Y2.533 E41.27731
G1 X143.634 Y2.821 E41.3202
G1 X144.48 Y3.184 E41.36307
G1 X145.291 Y3.619 E41.40592
G1 X146.062 Y4.123 E41.44881
G1 X146.786 Y4.691 E41.49166
G1 X147.458 Y5.321 E41.53455
G1 X148.127 Y6.073 E41.58142
G1 X148.651 Y6.722 E41.62026
G1 X150.306 Y8.71 E41.74071
G1 X151.967 Y10.594 E41.85766
G1 X153.722 Y12.478 E41.97756
G1 X155.468 Y14.247 E42.09329
G1 X157.301 Y16.003 E42.21149
G1 X159.177 Y17.7 E42.32928
G1 X161.112 Y19.353 E42.44779
G1 X163.067 Y20.932 E42.5648
G1 X165.079 Y22.462 E42.6825
G1 X167.144 Y23.943 E42.80083
G1 X169.229 Y25.352 E42.918
G1 X171.371 Y26.712 E43.03615
G1 X173.539 Y28.004 E43.15367
G1 X175.745 Y29.235 E43.2713
G1 X177.992 Y30.408 E43.38933
G1 X180.248 Y31.505 E43.50614
G1 X182.614 Y32.569 E43.62694
G1 X183.013 Y32.756 E43.64746
G1 X183.761 Y33.146 E43.68674
G1 X183.998 Y33.282 E43.69946
G1 X184.292 Y33.456 E43.71537
G1 X184.862 Y33.806 E43.74651
G1 X185.476 Y34.194 E43.78033
G1 X186.443 Y34.885 E43.83568
G1 X186.68 Y35.075 E43.84982
G1 X186.921 Y35.274 E43.86437
G1 X187.447 Y35.723 E43.89658
G1 X188.018 Y36.226 E43.93201
G1 X188.874 Y37.071 E43.98802
G1 X189.192 Y37.425 E44.01017
G1 X189.732 Y38.056 E44.04885
G1 X190.177 Y38.593 E44.08132
G1 X190.856 Y39.509 E44.13441
G1 X191.028 Y39.769 E44.14893
G1 X191.218 Y40.068 E44.16543
G1 X191.61 Y40.708 E44.20037
G1 X191.954 Y41.288 E44.23177
G1 X192.479 Y42.29 E44.28445
G1 X192.606 Y42.568 E44.29868
G1 X192.756 Y42.913 E44.3162
G1 X192.972 Y43.434 E44.34246
G1 X193.286 Y44.22 E44.38187
G1 X193.661 Y45.339 E44.43682
G1 X193.737 Y45.616 E44.4502
G1 X193.816 Y45.92 E44.46482
G1 X193.991 Y46.646 E44.4996
G1 X194.147 Y47.338 E44.53263
G1 X194.348 Y48.564 E44.59048
G1 X194.389 Y48.955 E44.60879
G1 X194.415 Y49.236 E44.62193
G1 X194.459 Y49.809 E44.64869
G1 X194.507 Y50.548 E44.68317
G1 X194.522 Y50.843 E44.69692
G1 X194.528 Y51.005 E44.70447
G1 X194.534 Y51.287 E44.71761
G1 X194.539 Y51.782 E44.74066
G1 X194.539 Y197.528 E51.5272
G1 X194.528 Y198.384 E51.56706
G1 X194.519 Y198.688 E51.58123
G1 X194.501 Y199.064 E51.59875
G1 X194.474 Y199.478 E51.61807
G1 X194.422 Y200.129 E51.64848
G1 X194.359 Y200.796 E51.67968
G1 X194.177 Y201.993 E51.73606
G1 X194.1 Y202.357 E51.75338
G1 X194.037 Y202.634 E51.76661
G1 X193.884 Y203.269 E51.79702
G1 X193.714 Y203.935 E51.82903
G1 X193.358 Y205.063 E51.88411
G1 X193.24 Y205.375 E51.89964
G1 X193.121 Y205.675 E51.91467
G1 X192.925 Y206.149 E51.93855
G1 X192.561 Y206.993 E51.98135
G1 X192.034 Y208.046 E52.03618
G1 X191.891 Y208.296 E52.04959
G1 X191.729 Y208.57 E52.06441
G1 X191.368 Y209.158 E52.09654
G1 X190.98 Y209.772 E52.13036
G1 X190.289 Y210.739 E52.1857
G1 X190.099 Y210.976 E52.19985
G1 X189.9 Y211.217 E52.2144
G1 X189.452 Y211.742 E52.24654
G1 X188.95 Y212.312 E52.28191
G1 X188.105 Y213.168 E52.33791
G1 X187.854 Y213.395 E52.35367
G1 X187.639 Y213.584 E52.367
G1 X187.117 Y214.03 E52.39897
G1 X186.607 Y214.454 E52.42986
G1 X185.693 Y215.134 E52.4829
G1 X185.449 Y215.296 E52.49654
G1 X185.196 Y215.459 E52.51055
G1 X184.615 Y215.817 E52.54233
G1 X184.482 Y215.898 E52.54958
G1 X183.889 Y216.25 E52.58169
G1 X182.791 Y216.818 E52.63926
G1 X182.461 Y216.965 E52.65608
G1 X182.208 Y217.074 E52.66891
G1 X181.619 Y217.317 E52.69857
G1 X180.946 Y217.585 E52.73231
G1 X179.764 Y217.977 E52.79029
G1 X179.394 Y218.076 E52.80813
G1 X179.135 Y218.142 E52.82057
G1 X178.678 Y218.252 E52.84246
G1 X177.832 Y218.443 E52.88284
G1 X176.612 Y218.644 E52.94042
G1 X176.222 Y218.685 E52.95868
G1 X175.938 Y218.711 E52.97196
G1 X175.351 Y218.756 E52.99937
G1 X174.597 Y218.804 E53.03455
G1 X174.209 Y218.822 E53.05264
G1 X173.887 Y218.83 E53.06764
G1 X173.392 Y218.835 E53.09069
G1 X56.896 Y218.835 E58.51523
G1 X56.044 Y218.824 E58.55491
G1 X55.125 Y218.771 E58.59777
G1 X54.214 Y218.638 E58.64064
G1 X53.318 Y218.427 E58.6835
G1 X52.443 Y218.139 E58.7264
G1 X51.597 Y217.776 E58.76926
G1 X50.786 Y217.341 E58.81211
G1 X50.015 Y216.837 E58.85501
G1 X49.291 Y216.268 E58.89788
G1 X48.619 Y215.639 E58.94074
G1 X47.951 Y214.888 E58.98754
G1 X47.449 Y214.267 E59.02473
G1 X45.777 Y212.257 E59.14647
G1 X44.119 Y210.375 E59.26326
G1 X42.402 Y208.532 E59.38055
G1 X40.608 Y206.711 E59.49958
G1 X38.785 Y204.965 E59.61712
G1 X36.917 Y203.274 E59.73445
G1 X35.007 Y201.641 E59.85146
G1 X33.01 Y200.029 E59.97096
G1 X31.01 Y198.506 E60.08802
G1 X28.951 Y197.029 E60.20601
G1 X26.872 Y195.623 E60.32288
G1 X24.729 Y194.261 E60.44111
G1 X22.538 Y192.956 E60.55986
G1 X20.388 Y191.754 E60.67456
G1 X18.089 Y190.554 E60.79532
G1 X15.846 Y189.462 E60.91148
G1 X13.379 Y188.351 E61.03746
G1 X13.191 Y188.265 E61.04709
G1 X12.294 Y187.803 E61.09407
G1 X11.885 Y187.565 E61.11611
G1 X11.673 Y187.437 E61.12764
G1 X11.218 Y187.156 E61.15254
G1 X10.605 Y186.769 E61.1863
G1 X9.63 Y186.073 E61.24208
G1 X9.392 Y185.882 E61.25629
G1 X9.155 Y185.686 E61.27061
G1 X8.628 Y185.236 E61.30288
G1 X8.056 Y184.732 E61.33838
G1 X7.227 Y183.916 E61.39254
G1 X7.023 Y183.692 E61.40665
G1 X6.799 Y183.439 E61.42238
G1 X6.454 Y183.035 E61.44712
G1 X5.888 Y182.353 E61.48839
G1 X5.195 Y181.416 E61.54266
G1 X5.007 Y181.13 E61.55859
G1 X4.823 Y180.838 E61.57466
G1 X4.461 Y180.244 E61.60706
G1 X4.116 Y179.661 E61.6386
G1 X3.848 Y179.181 E61.6642
G1 X3.548 Y178.564 E61.69614
G1 X3.377 Y178.178 E61.7158
G1 X3.092 Y177.495 E61.75026
G1 X3.03 Y177.344 E61.75786
G1 X2.783 Y176.722 E61.78903
G1 X2.392 Y175.536 E61.84718
G1 X2.293 Y175.164 E61.8651
G1 X2.229 Y174.913 E61.87716
G1 X2.087 Y174.318 E61.90565
G1 X1.931 Y173.628 E61.93859
G1 X1.735 Y172.461 E61.99369
G1 X1.703 Y172.173 E62.00718
G1 X1.672 Y171.847 E62.02243
G1 X1.616 Y171.137 E62.05559
G1 X1.568 Y170.383 E62.09077
G1 X1.55 Y169.999 E62.10867
G1 X1.542 Y169.674 E62.12381
G1 X1.537 Y169.179 E62.14686
G1 X1.537 Y23.432 E68.93345
G1 X1.548 Y22.576 E68.97331
G1 X1.557 Y22.272 E68.98748
G1 X1.577 Y21.872 E69.00613
G1 X1.617 Y21.288 E69.03338
G1 X1.655 Y20.826 E69.05497
G1 X1.716 Y20.173 E69.08551
G1 X1.895 Y18.984 E69.1415
G1 X1.956 Y18.693 E69.15534
G1 X2.025 Y18.389 E69.16986
G1 X2.201 Y17.661 E69.20473
G1 X2.361 Y17.035 E69.23482
G1 X2.497 Y16.553 E69.25814
G1 X2.735 Y15.855 E69.29248
G1 X2.858 Y15.532 E69.30857
G1 X2.968 Y15.255 E69.32245
G1 X3.166 Y14.776 E69.34658
G1 X3.235 Y14.613 E69.35483
G1 X3.516 Y13.964 E69.38776
G1 X4.054 Y12.891 E69.44365
G1 X4.188 Y12.658 E69.45616
G1 X4.325 Y12.427 E69.46867
G1 X4.626 Y11.933 E69.49561
G1 X5.11 Y11.168 E69.53776
G1 X5.793 Y10.212 E69.59247
G1 X5.98 Y9.979 E69.60638
