;FLAVOR:Marlin
;TIME:8279
;Filament used: 7.62548m
;Layer height: 0.28
;MINX:13.099
;MINY:1.245
;MINZ:0.28
;MAXX:206.901
;MAXY:218.755
;MAXZ:4.76
;Generated with Cura_SteamEngine 4.7.0
M82 ;absolute extrusion mode
; Ender 3 Custom Start G-code
G92 E0 ; Reset Extruder
M140 S70 ;set bed temperature
M104 T0 S260 ;set hotend temperature
G28 ; Home all axes
G29 ; BLTouch
M190 S70 ;wait for bed temperature

G1 Z2.0 F3000 ; Move Z Axis up little to prevent scratching of Heat Bed
G1 X0.1 Y20 Z0.3 F5000.0 ; Move to start position
G1 X0.1 Y200.0 Z0.3 F1500.0 E15 ; Draw the first line
G1 X0.4 Y200.0 Z0.3 F5000.0 ; Move to side a little
G1 X0.4 Y20 Z0.3 F1500.0 E30 ; Draw the second line
G92 E0 ; Reset Extruder
G1 Z2.0 F3000 ; Move Z Axis up little to prevent scratching of Heat Bed
G1 X5 Y20 Z0.3 F5000.0 ; Move over to prevent blob squish
G92 E0
G92 E0
G1 F1500 E-6.5
;LAYER_COUNT:17
;LAYER:0
M107
G0 F6000 X16.734 Y10.473 Z0.28
;TYPE:SKIRT
G1 F1500 E0
G1 F900 X17.443 Y9.482 E0.05674
G1 X17.63 Y9.249 E0.07065
G1 X17.835 Y9.002 E0.0856
G1 X18.272 Y8.49 E0.11694
G1 X18.764 Y7.929 E0.15169
G1 X19.629 Y7.047 E0.20921
G1 X19.863 Y6.834 E0.22394
G1 X20.123 Y6.606 E0.24005
G1 X20.658 Y6.15 E0.27278
G1 X21.216 Y5.688 E0.30651
G1 X22.208 Y4.957 E0.36389
G1 X22.506 Y4.762 E0.38047
G1 X22.784 Y4.586 E0.3958
G1 X23.371 Y4.227 E0.42783
G1 X23.955 Y3.881 E0.45944
G1 X24.458 Y3.601 E0.48625
G1 X25.141 Y3.271 E0.52157
G1 X25.481 Y3.121 E0.53887
G1 X25.711 Y3.023 E0.55052
G1 X26.261 Y2.796 E0.57822
G1 X26.917 Y2.534 E0.61111
G1 X27.536 Y2.307 E0.64181
G1 X28.165 Y2.119 E0.67238
G1 X28.534 Y2.02 E0.69017
G1 X28.81 Y1.949 E0.70344
G1 X29.267 Y1.839 E0.72533
G1 X30.118 Y1.647 E0.76595
G1 X31.384 Y1.438 E0.8257
G1 X31.774 Y1.397 E0.84396
G1 X32.069 Y1.37 E0.85775
G1 X32.661 Y1.325 E0.8854
G1 X33.415 Y1.277 E0.92058
G1 X33.665 Y1.264 E0.93224
G1 X33.812 Y1.258 E0.93909
G1 X34.147 Y1.25 E0.95469
G1 X34.646 Y1.245 E0.97793
G1 X151.142 Y1.245 E6.40247
G1 X151.299 Y1.246 E6.40978
G1 X152.001 Y1.256 E6.44247
G1 X152.937 Y1.309 E6.48613
G1 X153.865 Y1.442 E6.52978
G1 X154.779 Y1.654 E6.57347
G1 X155.672 Y1.942 E6.61716
G1 X156.536 Y2.306 E6.66082
G1 X157.367 Y2.742 E6.70451
G1 X158.157 Y3.247 E6.74817
G1 X158.901 Y3.817 E6.79181
G1 X159.594 Y4.449 E6.83549
G1 X160.4 Y5.342 E6.8915
G1 X160.885 Y5.942 E6.92743
G1 X162.577 Y7.976 E7.05062
G1 X164.255 Y9.879 E7.16876
G1 X165.944 Y11.692 E7.28414
G1 X167.709 Y13.48 E7.40113
G1 X169.545 Y15.238 E7.51949
G1 X171.402 Y16.919 E7.63613
G1 X173.323 Y18.56 E7.75377
G1 X175.278 Y20.138 E7.87076
G1 X177.288 Y21.667 E7.98836
G1 X179.341 Y23.14 E8.10601
G1 X181.399 Y24.53 E8.22165
G1 X183.531 Y25.884 E8.33926
G1 X185.721 Y27.189 E8.45796
G1 X187.88 Y28.394 E8.57309
G1 X190.135 Y29.571 E8.69154
G1 X192.411 Y30.678 E8.80939
G1 X194.74 Y31.725 E8.92829
G1 X194.928 Y31.811 E8.93792
G1 X195.146 Y31.914 E8.94915
G1 X195.922 Y32.319 E8.9899
G1 X196.159 Y32.455 E9.00263
G1 X196.46 Y32.633 E9.01891
G1 X196.919 Y32.914 E9.04397
G1 X197.651 Y33.376 E9.08428
G1 X198.655 Y34.093 E9.14173
G1 X198.892 Y34.283 E9.15587
G1 X199.142 Y34.489 E9.17095
G1 X199.532 Y34.821 E9.1948
G1 X199.674 Y34.944 E9.20355
G1 X200.246 Y35.448 E9.23905
G1 X201.108 Y36.296 E9.29535
G1 X201.311 Y36.519 E9.3094
G1 X201.54 Y36.779 E9.32553
G1 X201.996 Y37.314 E9.35826
G1 X202.458 Y37.872 E9.392
G1 X203.177 Y38.845 E9.44833
G1 X203.365 Y39.131 E9.46427
G1 X203.557 Y39.433 E9.48093
G1 X203.839 Y39.894 E9.50609
G1 X204.26 Y40.603 E9.54449
G1 X204.814 Y41.665 E9.60027
G1 X204.933 Y41.927 E9.61366
G1 X205.074 Y42.25 E9.63008
G1 X205.381 Y42.991 E9.66742
G1 X205.627 Y43.611 E9.69848
G1 X206.029 Y44.827 E9.75812
G1 X206.129 Y45.201 E9.77615
G1 X206.198 Y45.473 E9.78921
G1 X206.308 Y45.931 E9.81115
G1 X206.496 Y46.76 E9.85073
G1 X206.701 Y47.978 E9.90824
G1 X206.733 Y48.267 E9.92178
G1 X206.765 Y48.602 E9.93745
G1 X206.82 Y49.303 E9.97019
G1 X206.868 Y50.042 E10.00467
G1 X206.883 Y50.348 E10.01894
G1 X206.889 Y50.51 E10.02649
G1 X206.896 Y50.803 E10.04014
G1 X206.901 Y51.302 E10.06337
G1 X206.901 Y197.048 E16.84992
G1 X206.89 Y197.91 E16.89006
G1 X206.881 Y198.225 E16.90473
G1 X206.862 Y198.61 E16.92268
G1 X206.835 Y199.024 E16.942
G1 X206.797 Y199.513 E16.96484
G1 X206.782 Y199.686 E16.97292
G1 X206.719 Y200.353 E17.00412
G1 X206.538 Y201.556 E17.06077
G1 X206.479 Y201.84 E17.07427
G1 X206.407 Y202.161 E17.08959
G1 X206.229 Y202.901 E17.12503
G1 X206.06 Y203.562 E17.1568
G1 X205.886 Y204.168 E17.18616
G1 X205.678 Y204.768 E17.21573
G1 X205.565 Y205.065 E17.23053
G1 X205.446 Y205.364 E17.24551
G1 X205.174 Y206.018 E17.27849
G1 X204.894 Y206.666 E17.31136
G1 X204.336 Y207.78 E17.36938
G1 X204.212 Y207.996 E17.38098
G1 X204.059 Y208.253 E17.3949
G1 X203.668 Y208.891 E17.42975
G1 X203.28 Y209.505 E17.46357
G1 X202.563 Y210.509 E17.52102
G1 X202.373 Y210.746 E17.53516
G1 X202.167 Y210.996 E17.55024
G1 X201.835 Y211.386 E17.57409
G1 X201.714 Y211.526 E17.58271
G1 X201.212 Y212.096 E17.61808
G1 X200.365 Y212.957 E17.67432
G1 X200.14 Y213.162 E17.68849
G1 X199.877 Y213.394 E17.70482
G1 X199.342 Y213.85 E17.73755
G1 X198.784 Y214.312 E17.77129
G1 X197.811 Y215.031 E17.82762
G1 X197.525 Y215.219 E17.84356
G1 X197.223 Y215.411 E17.86022
G1 X196.762 Y215.693 E17.88538
G1 X196.015 Y216.135 E17.9258
G1 X194.88 Y216.72 E17.98526
G1 X194.553 Y216.865 E18.00191
G1 X194.3 Y216.973 E18.01472
G1 X193.723 Y217.211 E18.04379
G1 X193.049 Y217.479 E18.07756
G1 X191.835 Y217.881 E18.13711
G1 X191.466 Y217.98 E18.1549
G1 X191.19 Y218.051 E18.16817
G1 X190.733 Y218.161 E18.19006
G1 X189.882 Y218.353 E18.23068
G1 X188.616 Y218.562 E18.29043
G1 X188.226 Y218.603 E18.30869
G1 X187.931 Y218.63 E18.32248
G1 X187.339 Y218.675 E18.35013
G1 X186.585 Y218.723 E18.38531
G1 X186.335 Y218.736 E18.39696
G1 X186.188 Y218.742 E18.40381
G1 X185.853 Y218.75 E18.41942
G1 X185.354 Y218.755 E18.44265
G1 X68.858 Y218.755 E23.8672
G1 X68.701 Y218.754 E23.87451
G1 X67.999 Y218.744 E23.9072
G1 X67.063 Y218.691 E23.95085
G1 X66.135 Y218.558 E23.99451
G1 X65.221 Y218.346 E24.0382
G1 X64.328 Y218.058 E24.08189
G1 X63.464 Y217.694 E24.12554
G1 X62.633 Y217.258 E24.16924
G1 X61.843 Y216.753 E24.2129
G1 X61.099 Y216.183 E24.25654
G1 X60.406 Y215.551 E24.30021
G1 X59.6 Y214.658 E24.35623
G1 X59.115 Y214.058 E24.39215
G1 X57.423 Y212.025 E24.51531
G1 X55.762 Y210.14 E24.6323
G1 X54.037 Y208.29 E24.75008
G1 X52.291 Y206.52 E24.86585
G1 X50.455 Y204.762 E24.98422
G1 X48.58 Y203.065 E25.10197
G1 X46.695 Y201.455 E25.21741
G1 X44.705 Y199.848 E25.33651
G1 X42.723 Y198.341 E25.45245
G1 X40.673 Y196.869 E25.56996
G1 X38.594 Y195.465 E25.68678
G1 X36.469 Y194.116 E25.80398
G1 X34.279 Y192.811 E25.92269
G1 X32.12 Y191.606 E26.03782
G1 X29.865 Y190.429 E26.15627
G1 X27.589 Y189.322 E26.27412
G1 X25.26 Y188.275 E26.39302
G1 X24.883 Y188.1 E26.41237
G1 X24.047 Y187.664 E26.45628
G1 X23.647 Y187.431 E26.47783
G1 X23.431 Y187.301 E26.48957
G1 X23.081 Y187.086 E26.5087
G1 X22.354 Y186.627 E26.54873
G1 X21.341 Y185.905 E26.60666
G1 X21.103 Y185.714 E26.62087
G1 X20.858 Y185.511 E26.63568
G1 X20.468 Y185.179 E26.65953
G1 X20.326 Y185.056 E26.66828
G1 X19.754 Y184.552 E26.70378
G1 X18.893 Y183.706 E26.75998
G1 X18.689 Y183.482 E26.77409
G1 X18.457 Y183.218 E26.79046
G1 X18.004 Y182.686 E26.82299
G1 X17.542 Y182.128 E26.85672
G1 X16.823 Y181.155 E26.91306
G1 X16.635 Y180.869 E26.929
G1 X16.443 Y180.567 E26.94566
G1 X16.078 Y179.968 E26.97832
G1 X15.733 Y179.385 E27.00987
G1 X15.456 Y178.887 E27.0364
G1 X15.145 Y178.247 E27.06953
G1 X14.971 Y177.855 E27.08951
G1 X14.877 Y177.634 E27.10069
G1 X14.684 Y177.169 E27.12413
G1 X14.374 Y176.39 E27.16317
G1 X13.967 Y175.159 E27.22354
G1 X13.868 Y174.787 E27.24147
G1 X13.802 Y174.527 E27.25396
G1 X13.659 Y173.926 E27.28273
G1 X13.503 Y173.236 E27.31567
G1 X13.299 Y172.025 E27.37285
G1 X13.267 Y171.737 E27.38634
G1 X13.235 Y171.398 E27.4022
G1 X13.179 Y170.683 E27.43559
G1 X13.131 Y169.929 E27.47077
G1 X13.118 Y169.682 E27.48229
G1 X13.112 Y169.536 E27.4891
G1 X13.104 Y169.198 E27.50484
G1 X13.099 Y168.699 E27.52808
G1 X13.099 Y22.952 E34.31467
G1 X13.11 Y22.09 E34.35481
G1 X13.12 Y21.759 E34.37023
G1 X13.127 Y21.601 E34.37759
G1 X13.14 Y21.367 E34.3885
G1 X13.177 Y20.811 E34.41445
G1 X13.219 Y20.303 E34.43819
G1 X13.28 Y19.653 E34.46859
G1 X13.462 Y18.444 E34.52552
G1 X13.521 Y18.16 E34.53902
G1 X13.593 Y17.839 E34.55434
G1 X13.776 Y17.079 E34.59074
G1 X13.951 Y16.4 E34.62339
G1 X14.325 Y15.226 E34.68077
G1 X14.439 Y14.927 E34.69567
G1 X14.551 Y14.646 E34.70975
G1 X14.83 Y13.974 E34.74363
G1 X15.111 Y13.325 E34.77656
G1 X15.669 Y12.212 E34.83454
G1 X15.803 Y11.979 E34.84705
G1 X15.918 Y11.784 E34.8576
G1 X16.095 Y11.491 E34.87353
G1 X16.352 Y11.075 E34.8963
G1 X16.734 Y10.473 E34.9295
G0 F6000 X17.072 Y10.688
G1 F900 X17.755 Y9.732 E34.98421
G1 X17.942 Y9.499 E34.99812
G1 X18.139 Y9.261 E35.01251
G1 X18.472 Y8.87 E35.03642
G1 X19.065 Y8.193 E35.07833
G1 X19.899 Y7.343 E35.13378
G1 X20.133 Y7.13 E35.14852
G1 X20.383 Y6.91 E35.16402
G1 X20.913 Y6.458 E35.19646
G1 X21.471 Y5.996 E35.23019
G1 X22.427 Y5.291 E35.2855
G1 X22.725 Y5.096 E35.30208
G1 X22.993 Y4.927 E35.31684
G1 X23.575 Y4.571 E35.3486
G1 X24.159 Y4.225 E35.38021
G1 X24.644 Y3.955 E35.40606
G1 X25.302 Y3.637 E35.44009
G1 X25.642 Y3.487 E35.45739
G1 X25.864 Y3.392 E35.46864
G1 X26.409 Y3.167 E35.49609
G1 X27.065 Y2.905 E35.52899
G1 X27.663 Y2.687 E35.55862
G1 X28.268 Y2.505 E35.58804
G1 X28.637 Y2.406 E35.60583
G1 X28.903 Y2.338 E35.61862
G1 X29.36 Y2.228 E35.6405
G1 X30.206 Y2.037 E35.68089
G1 X31.426 Y1.836 E35.73846
G1 X31.816 Y1.795 E35.75672
G1 X32.1 Y1.769 E35.77
G1 X32.687 Y1.724 E35.79742
G1 X33.441 Y1.676 E35.8326
G1 X33.829 Y1.658 E35.85068
G1 X34.151 Y1.65 E35.86568
G1 X34.646 Y1.645 E35.88873
G1 X151.142 Y1.645 E41.31327
G1 X151.995 Y1.656 E41.353
G1 X152.914 Y1.709 E41.39586
G1 X153.825 Y1.842 E41.43873
G1 X154.721 Y2.053 E41.48159
G1 X155.596 Y2.341 E41.52449
G1 X156.442 Y2.704 E41.56735
G1 X157.253 Y3.139 E41.6102
G1 X158.024 Y3.643 E41.6531
G1 X158.748 Y4.211 E41.69594
G1 X159.42 Y4.841 E41.73884
G1 X160.089 Y5.593 E41.7857
G1 X160.613 Y6.242 E41.82454
G1 X162.268 Y8.23 E41.94499
G1 X163.929 Y10.114 E42.06195
G1 X165.684 Y11.998 E42.18184
G1 X167.43 Y13.767 E42.29758
G1 X169.263 Y15.523 E42.41577
G1 X171.139 Y17.22 E42.53357
G1 X173.074 Y18.873 E42.65207
G1 X175.029 Y20.452 E42.76908
G1 X177.041 Y21.982 E42.88678
G1 X179.106 Y23.463 E43.00511
G1 X181.191 Y24.872 E43.12229
G1 X183.333 Y26.232 E43.24043
G1 X185.501 Y27.524 E43.35795
G1 X187.707 Y28.755 E43.47558
G1 X189.954 Y29.928 E43.59361
G1 X192.21 Y31.025 E43.71042
G1 X194.576 Y32.089 E43.83122
G1 X194.975 Y32.276 E43.85174
G1 X195.723 Y32.666 E43.89102
G1 X195.96 Y32.802 E43.90374
G1 X196.254 Y32.976 E43.91965
G1 X196.824 Y33.326 E43.95079
G1 X197.438 Y33.714 E43.98462
G1 X198.405 Y34.405 E44.03996
G1 X198.642 Y34.595 E44.0541
G1 X198.883 Y34.794 E44.06865
G1 X199.41 Y35.244 E44.10092
G1 X199.982 Y35.748 E44.13642
G1 X200.813 Y36.565 E44.19069
G1 X201.016 Y36.788 E44.20473
G1 X201.236 Y37.039 E44.22027
G1 X201.688 Y37.569 E44.2527
G1 X202.15 Y38.127 E44.28644
G1 X202.843 Y39.064 E44.3407
G1 X203.031 Y39.35 E44.35664
G1 X203.215 Y39.642 E44.37271
G1 X203.572 Y40.227 E44.40462
G1 X203.916 Y40.807 E44.43602
G1 X204.45 Y41.83 E44.48976
G1 X204.569 Y42.092 E44.50316
G1 X204.705 Y42.404 E44.51901
G1 X204.943 Y42.976 E44.54785
G1 X205.255 Y43.759 E44.5871
G1 X205.642 Y44.93 E44.64453
G1 X205.742 Y45.304 E44.66256
G1 X205.809 Y45.567 E44.67519
G1 X205.95 Y46.159 E44.70353
G1 X206.106 Y46.848 E44.73643
G1 X206.304 Y48.022 E44.79186
G1 X206.336 Y48.311 E44.8054
G1 X206.366 Y48.633 E44.82046
G1 X206.421 Y49.329 E44.85297
G1 X206.469 Y50.068 E44.88745
G1 X206.484 Y50.363 E44.90121
G1 X206.49 Y50.525 E44.90876
G1 X206.496 Y50.807 E44.92189
G1 X206.501 Y51.302 E44.94494
G1 X206.501 Y197.048 E51.73149
G1 X206.49 Y197.904 E51.77135
G1 X206.481 Y198.208 E51.78551
G1 X206.463 Y198.584 E51.80304
G1 X206.436 Y198.998 E51.82236
G1 X206.384 Y199.649 E51.85277
G1 X206.321 Y200.316 E51.88396
G1 X206.146 Y201.475 E51.93854
G1 X206.087 Y201.759 E51.95205
G1 X206.018 Y202.068 E51.96679
G1 X205.842 Y202.802 E52.00194
G1 X205.673 Y203.463 E52.03371
G1 X205.505 Y204.048 E52.06205
G1 X205.304 Y204.625 E52.0905
G1 X205.191 Y204.922 E52.1053
G1 X205.077 Y205.211 E52.11976
G1 X204.869 Y205.713 E52.14507
G1 X204.526 Y206.508 E52.18538
G1 X203.989 Y207.58 E52.24121
G1 X203.865 Y207.796 E52.25281
G1 X203.718 Y208.045 E52.26627
G1 X203.33 Y208.678 E52.30085
G1 X202.942 Y209.292 E52.33467
G1 X202.251 Y210.259 E52.39001
G1 X202.061 Y210.496 E52.40415
G1 X201.862 Y210.737 E52.41871
G1 X201.414 Y211.262 E52.45084
G1 X200.912 Y211.832 E52.48621
G1 X200.096 Y212.661 E52.54037
G1 X199.871 Y212.866 E52.55455
G1 X199.617 Y213.09 E52.57032
G1 X199.087 Y213.542 E52.60275
G1 X198.529 Y214.004 E52.63649
G1 X197.592 Y214.697 E52.69075
G1 X197.306 Y214.885 E52.70669
G1 X197.014 Y215.069 E52.72276
G1 X196.413 Y215.436 E52.75555
G1 X195.812 Y215.791 E52.78805
G1 X194.718 Y216.354 E52.84534
G1 X194.391 Y216.499 E52.862
G1 X194.147 Y216.604 E52.87437
G1 X193.576 Y216.839 E52.90312
G1 X192.902 Y217.107 E52.9369
G1 X191.732 Y217.495 E52.99429
G1 X191.363 Y217.594 E53.01208
G1 X191.097 Y217.662 E53.02487
G1 X190.64 Y217.772 E53.04676
G1 X189.794 Y217.963 E53.08714
G1 X188.574 Y218.164 E53.14471
G1 X188.184 Y218.205 E53.16297
G1 X187.9 Y218.231 E53.17625
G1 X187.313 Y218.276 E53.20367
G1 X186.559 Y218.324 E53.23885
G1 X186.171 Y218.342 E53.25693
G1 X185.849 Y218.35 E53.27193
G1 X185.354 Y218.355 E53.29498
G1 X68.858 Y218.355 E58.71952
G1 X68.005 Y218.344 E58.75925
G1 X67.086 Y218.291 E58.80211
G1 X66.175 Y218.158 E58.84498
G1 X65.279 Y217.947 E58.88784
G1 X64.404 Y217.659 E58.93074
G1 X63.558 Y217.296 E58.9736
G1 X62.747 Y216.861 E59.01646
G1 X61.976 Y216.357 E59.05935
G1 X61.252 Y215.789 E59.1022
G1 X60.58 Y215.159 E59.14509
G1 X59.911 Y214.407 E59.19196
G1 X59.387 Y213.758 E59.2308
G1 X57.732 Y211.77 E59.35125
G1 X56.054 Y209.866 E59.46942
G1 X54.332 Y208.019 E59.58701
G1 X52.57 Y206.233 E59.70383
G1 X50.718 Y204.459 E59.82325
G1 X48.862 Y202.78 E59.93978
G1 X46.961 Y201.156 E60.05621
G1 X44.953 Y199.534 E60.1764
G1 X42.953 Y198.013 E60.2934
G1 X40.884 Y196.529 E60.41196
G1 X38.827 Y195.139 E60.52756
G1 X36.667 Y193.768 E60.64669
G1 X34.499 Y192.476 E60.76421
G1 X32.293 Y191.245 E60.88184
G1 X30.046 Y190.072 E60.99987
G1 X27.79 Y188.975 E61.11668
G1 X25.424 Y187.911 E61.23748
G1 X25.052 Y187.738 E61.25658
G1 X24.247 Y187.318 E61.29886
G1 X24.015 Y187.184 E61.31133
G1 X23.641 Y186.96 E61.33163
G1 X23.18 Y186.676 E61.35685
G1 X22.567 Y186.289 E61.3906
G1 X21.592 Y185.593 E61.44638
G1 X21.354 Y185.402 E61.46059
G1 X21.117 Y185.206 E61.47491
G1 X20.59 Y184.756 E61.50718
G1 X20.018 Y184.252 E61.54268
G1 X19.189 Y183.436 E61.59685
G1 X18.985 Y183.212 E61.61095
G1 X18.761 Y182.959 E61.62669
G1 X18.416 Y182.555 E61.65143
G1 X17.85 Y181.873 E61.69269
G1 X17.157 Y180.936 E61.74696
G1 X16.969 Y180.65 E61.7629
G1 X16.785 Y180.358 E61.77897
G1 X16.423 Y179.764 E61.81136
G1 X16.078 Y179.181 E61.8429
G1 X15.81 Y178.701 E61.8685
G1 X15.51 Y178.084 E61.90045
G1 X15.339 Y177.698 E61.92011
G1 X15.054 Y177.015 E61.95457
G1 X14.992 Y176.864 E61.96217
G1 X14.745 Y176.242 E61.99333
G1 X14.354 Y175.056 E62.05148
G1 X14.255 Y174.684 E62.06941
G1 X14.191 Y174.433 E62.08147
G1 X14.049 Y173.838 E62.10995
G1 X13.893 Y173.148 E62.14289
G1 X13.697 Y171.981 E62.19799
G1 X13.665 Y171.693 E62.21149
G1 X13.634 Y171.367 E62.22673
G1 X13.578 Y170.657 E62.2599
G1 X13.53 Y169.903 E62.29508
G1 X13.512 Y169.519 E62.31298
G1 X13.504 Y169.194 E62.32812
G1 X13.499 Y168.699 E62.35117
G1 X13.499 Y22.952 E69.13776
G1 X13.51 Y22.096 E69.17762
G1 X13.519 Y21.777 E69.19248
G1 X13.526 Y21.619 E69.19984
G1 X13.539 Y21.394 E69.21034
G1 X13.576 Y20.843 E69.23605
G1 X13.617 Y20.341 E69.25951
G1 X13.678 Y19.691 E69.28991
G1 X13.854 Y18.525 E69.34481
G1 X13.913 Y18.241 E69.35832
G1 X13.982 Y17.932 E69.37306
G1 X14.163 Y17.178 E69.40917
G1 X14.338 Y16.499 E69.44182
G1 X14.698 Y15.369 E69.49704
G1 X14.812 Y15.07 E69.51194
G1 X14.92 Y14.798 E69.52557
