;FLAVOR:Marlin
;TIME:8093
;Filament used: 7.47662m
;Layer height: 0.28
;MINX:19.579
;MINY:5.547
;MINZ:0.28
;MAXX:200.421
;MAXY:214.453
;MAXZ:4.76
;Generated with Cura_SteamEngine 4.7.0
M82 ;absolute extrusion mode
; Ender 3 Custom Start G-code
G92 E0 ; Reset Extruder
M140 S70 ;set bed temperature
M104 T0 S260 ;set hotend temperature
G28 ; Home all axes
G29 ; BLTouch
M190 S70 ;wait for bed temperature

G1 Z2.0 F3000 ; Move Z Axis up little to prevent scratching of Heat Bed
G1 X0.1 Y20 Z0.3 F5000.0 ; Move to start position
G1 X0.1 Y200.0 Z0.3 F1500.0 E15 ; Draw the first line
G1 X0.4 Y200.0 Z0.3 F5000.0 ; Move to side a little
G1 X0.4 Y20 Z0.3 F1500.0 E30 ; Draw the second line
G92 E0 ; Reset Extruder
G1 Z2.0 F3000 ; Move Z Axis up little to prevent scratching of Heat Bed
G1 X5 Y20 Z0.3 F5000.0 ; Move over to prevent blob squish
G92 E0
G92 E0
G1 F1500 E-6.5
;LAYER_COUNT:17
;LAYER:0
M107
G0 F6000 X23.201 Y14.793 Z0.28
;TYPE:SKIRT
G1 F1500 E0
G1 F900 X23.903 Y13.808 E0.05632
G1 X24.085 Y13.58 E0.06991
G1 X24.317 Y13.299 E0.08687
G1 X24.726 Y12.82 E0.1162
G1 X24.853 Y12.674 E0.12521
G1 X25.283 Y12.188 E0.15543
G1 X26.132 Y11.328 E0.2117
G1 X26.357 Y11.124 E0.22584
G1 X26.597 Y10.912 E0.24075
G1 X27.004 Y10.564 E0.26569
G1 X27.696 Y9.99 E0.30755
G1 X28.688 Y9.259 E0.36493
G1 X28.986 Y9.064 E0.38152
G1 X29.264 Y8.888 E0.39684
G1 X29.851 Y8.529 E0.42888
G1 X30.435 Y8.183 E0.46048
G1 X30.938 Y7.903 E0.48729
G1 X31.574 Y7.594 E0.52022
G1 X31.818 Y7.485 E0.53266
G1 X32.07 Y7.376 E0.54544
G1 X32.571 Y7.167 E0.57072
G1 X32.741 Y7.098 E0.57926
G1 X33.425 Y6.826 E0.61354
G1 X34.615 Y6.429 E0.67195
G1 X34.94 Y6.341 E0.68763
G1 X35.226 Y6.268 E0.70138
G1 X35.734 Y6.145 E0.72571
G1 X36.587 Y5.951 E0.76645
G1 X37.822 Y5.745 E0.82475
G1 X38.125 Y5.712 E0.83894
G1 X38.449 Y5.681 E0.8541
G1 X39.183 Y5.624 E0.88838
G1 X39.871 Y5.58 E0.92048
G1 X40.131 Y5.567 E0.9326
G1 X40.305 Y5.56 E0.94071
G1 X40.632 Y5.552 E0.95594
G1 X41.13 Y5.547 E0.97913
G1 X157.622 Y5.547 E6.40349
G1 X157.779 Y5.548 E6.4108
G1 X158.481 Y5.558 E6.44349
G1 X159.417 Y5.611 E6.48714
G1 X160.345 Y5.744 E6.5308
G1 X161.259 Y5.956 E6.57449
G1 X162.152 Y6.244 E6.61818
G1 X163.016 Y6.608 E6.66183
G1 X163.847 Y7.044 E6.70553
G1 X164.637 Y7.549 E6.74919
G1 X165.201 Y7.971 E6.78199
G1 X165.907 Y8.588 E6.82565
G1 X166.48 Y9.174 E6.86381
G1 X167.06 Y9.814 E6.90403
G1 X167.667 Y10.502 E6.94675
G1 X169.368 Y12.33 E7.06302
G1 X171.142 Y14.129 E7.18067
G1 X172.952 Y15.865 E7.29745
G1 X174.827 Y17.563 E7.41524
G1 X176.746 Y19.206 E7.53287
G1 X178.7 Y20.786 E7.64988
G1 X180.7 Y22.31 E7.76697
G1 X182.75 Y23.782 E7.88448
G1 X184.809 Y25.175 E8.00024
G1 X186.943 Y26.532 E8.118
G1 X189.468 Y28.033 E8.25478
G1 X189.708 Y28.17 E8.26764
G1 X189.995 Y28.34 E8.28318
G1 X190.557 Y28.686 E8.31391
G1 X191.171 Y29.074 E8.34773
G1 X192.175 Y29.791 E8.40518
G1 X192.412 Y29.981 E8.41932
G1 X192.662 Y30.187 E8.4344
G1 X193.052 Y30.519 E8.45825
G1 X193.193 Y30.641 E8.46693
G1 X193.764 Y31.144 E8.50237
G1 X194.653 Y32.021 E8.56052
G1 X194.879 Y32.271 E8.57621
G1 X195.075 Y32.494 E8.59003
G1 X195.438 Y32.918 E8.61602
G1 X195.956 Y33.541 E8.65375
G1 X196.662 Y34.491 E8.70886
G1 X196.821 Y34.731 E8.72227
G1 X196.984 Y34.985 E8.73632
G1 X197.147 Y35.246 E8.75065
G1 X197.428 Y35.706 E8.77575
G1 X197.78 Y36.299 E8.80786
G1 X198.372 Y37.444 E8.86788
G1 X198.517 Y37.77 E8.8845
G1 X198.624 Y38.02 E8.89716
G1 X198.872 Y38.62 E8.92739
G1 X199.138 Y39.287 E8.96083
G1 X199.538 Y40.486 E9.01968
G1 X199.629 Y40.822 E9.03589
G1 X199.706 Y41.12 E9.05022
G1 X199.834 Y41.651 E9.07566
G1 X200.019 Y42.471 E9.1148
G1 X200.221 Y43.683 E9.17201
G1 X200.278 Y44.216 E9.19697
G1 X200.299 Y44.462 E9.20847
G1 X200.334 Y44.919 E9.22981
G1 X200.387 Y45.741 E9.26817
G1 X200.401 Y46.005 E9.28048
G1 X200.408 Y46.18 E9.28863
G1 X200.416 Y46.506 E9.30382
G1 X200.421 Y47.005 E9.32706
G1 X200.421 Y192.746 E16.11337
G1 X200.41 Y193.608 E16.15351
G1 X200.401 Y193.923 E16.16818
G1 X200.395 Y194.063 E16.17471
G1 X200.38 Y194.333 E16.1873
G1 X200.341 Y194.898 E16.21367
G1 X200.305 Y195.35 E16.23478
G1 X200.24 Y196.043 E16.26719
G1 X200.059 Y197.248 E16.32393
G1 X199.996 Y197.552 E16.33839
G1 X199.924 Y197.877 E16.35389
G1 X199.794 Y198.421 E16.37993
G1 X199.583 Y199.251 E16.41981
G1 X199.219 Y200.407 E16.47625
G1 X199.106 Y200.707 E16.49117
G1 X198.981 Y201.024 E16.50704
G1 X198.788 Y201.492 E16.53061
G1 X198.422 Y202.344 E16.57379
G1 X197.865 Y203.46 E16.63187
G1 X197.696 Y203.755 E16.6477
G1 X197.535 Y204.026 E16.66238
G1 X197.21 Y204.555 E16.69129
G1 X196.805 Y205.197 E16.72663
G1 X196.092 Y206.2 E16.78394
G1 X195.908 Y206.43 E16.79765
G1 X195.683 Y206.701 E16.81405
G1 X195.303 Y207.146 E16.8413
G1 X195.178 Y207.29 E16.85018
G1 X194.719 Y207.809 E16.88244
G1 X193.886 Y208.654 E16.93769
G1 X193.673 Y208.848 E16.95111
G1 X193.423 Y209.069 E16.96664
G1 X192.862 Y209.548 E17.00099
G1 X192.304 Y210.01 E17.03473
G1 X191.331 Y210.729 E17.09106
G1 X191.045 Y210.917 E17.107
G1 X190.743 Y211.109 E17.12366
G1 X190.282 Y211.391 E17.14883
G1 X189.535 Y211.833 E17.18924
G1 X188.441 Y212.4 E17.24662
G1 X188.209 Y212.504 E17.25846
G1 X187.757 Y212.697 E17.28134
G1 X187.273 Y212.896 E17.30571
G1 X186.58 Y213.172 E17.34044
G1 X185.385 Y213.571 E17.39911
G1 X185.06 Y213.659 E17.41479
G1 X184.774 Y213.732 E17.42853
G1 X184.266 Y213.855 E17.45287
G1 X183.413 Y214.049 E17.4936
G1 X182.178 Y214.255 E17.5519
G1 X181.875 Y214.288 E17.5661
G1 X181.551 Y214.319 E17.58125
G1 X180.817 Y214.376 E17.61553
G1 X180.129 Y214.42 E17.64763
G1 X179.869 Y214.433 E17.65976
G1 X179.695 Y214.44 E17.66787
G1 X179.368 Y214.448 E17.6831
G1 X178.871 Y214.453 E17.70624
G1 X62.378 Y214.453 E23.13064
G1 X61.519 Y214.442 E23.17064
G1 X60.582 Y214.389 E23.21434
G1 X59.654 Y214.256 E23.258
G1 X58.74 Y214.044 E23.30169
G1 X57.848 Y213.756 E23.34533
G1 X56.983 Y213.392 E23.38903
G1 X56.153 Y212.956 E23.43269
G1 X55.362 Y212.451 E23.47639
G1 X54.618 Y211.881 E23.52003
G1 X53.925 Y211.249 E23.5637
G1 X53.532 Y210.838 E23.59018
G1 X52.807 Y210.038 E23.64045
G1 X52.326 Y209.491 E23.67437
G1 X50.629 Y207.666 E23.79041
G1 X48.86 Y205.872 E23.90773
G1 X47.048 Y204.135 E24.02461
G1 X45.163 Y202.428 E24.14303
G1 X43.278 Y200.813 E24.25861
G1 X41.313 Y199.225 E24.37625
G1 X39.307 Y197.697 E24.49367
G1 X37.245 Y196.215 E24.61191
G1 X35.183 Y194.82 E24.72784
G1 X33.057 Y193.468 E24.84515
G1 X30.532 Y191.967 E24.98193
G1 X30.292 Y191.83 E24.9948
G1 X30.005 Y191.66 E25.01033
G1 X29.443 Y191.314 E25.04106
G1 X28.829 Y190.926 E25.07488
G1 X27.825 Y190.209 E25.13233
G1 X27.588 Y190.019 E25.14648
G1 X27.338 Y189.813 E25.16156
G1 X26.948 Y189.481 E25.18541
G1 X26.814 Y189.365 E25.19366
G1 X26.25 Y188.869 E25.22864
G1 X25.365 Y187.997 E25.28649
G1 X25.132 Y187.74 E25.30264
G1 X24.917 Y187.496 E25.31778
G1 X24.452 Y186.951 E25.35114
G1 X24.033 Y186.446 E25.3817
G1 X23.309 Y185.468 E25.43836
G1 X23.159 Y185.24 E25.45107
G1 X23.016 Y185.015 E25.46348
G1 X22.853 Y184.754 E25.47781
G1 X22.572 Y184.294 E25.50291
G1 X22.22 Y183.701 E25.53502
G1 X21.631 Y182.562 E25.59473
G1 X21.484 Y182.232 E25.61155
G1 X21.371 Y181.969 E25.62488
G1 X21.125 Y181.375 E25.65482
G1 X20.857 Y180.702 E25.68855
G1 X20.456 Y179.496 E25.74773
G1 X20.367 Y179.166 E25.76364
G1 X20.291 Y178.865 E25.7781
G1 X20.131 Y178.194 E25.81022
G1 X19.982 Y177.534 E25.84172
G1 X19.776 Y176.296 E25.90016
G1 X19.722 Y175.784 E25.92414
G1 X19.701 Y175.538 E25.93563
G1 X19.657 Y174.952 E25.963
G1 X19.612 Y174.257 E25.99543
G1 X19.596 Y173.943 E26.01007
G1 X19.59 Y173.777 E26.0178
G1 X19.584 Y173.495 E26.03094
G1 X19.579 Y172.996 E26.05417
G1 X19.579 Y27.254 E32.84053
G1 X19.59 Y26.391 E32.88072
G1 X19.599 Y26.073 E32.89553
G1 X19.605 Y25.934 E32.90201
G1 X19.62 Y25.667 E32.91446
G1 X19.659 Y25.102 E32.94083
G1 X19.695 Y24.656 E32.96167
G1 X19.76 Y23.959 E32.99426
G1 X19.954 Y22.687 E33.05418
G1 X20.032 Y22.321 E33.0716
G1 X20.095 Y22.041 E33.08497
G1 X20.21 Y21.563 E33.10786
G1 X20.417 Y20.749 E33.14697
G1 X20.781 Y19.593 E33.2034
G1 X20.894 Y19.293 E33.21833
G1 X20.997 Y19.03 E33.23148
G1 X21.098 Y18.781 E33.244
G1 X21.3 Y18.299 E33.26833
G1 X21.58 Y17.65 E33.30124
G1 X22.135 Y16.54 E33.35903
G1 X22.304 Y16.245 E33.37486
G1 X22.465 Y15.974 E33.38954
G1 X22.794 Y15.437 E33.41886
G1 X23.201 Y14.793 E33.45434
G0 F6000 X23.539 Y15.007
G1 F900 X24.216 Y14.057 E33.50866
G1 X24.398 Y13.829 E33.52224
G1 X24.621 Y13.559 E33.53855
G1 X25.152 Y12.939 E33.57656
G1 X25.582 Y12.453 E33.60677
G1 X26.401 Y11.624 E33.66104
G1 X26.626 Y11.42 E33.67518
G1 X26.857 Y11.217 E33.6895
G1 X27.393 Y10.76 E33.7223
G1 X27.951 Y10.298 E33.75603
G1 X28.907 Y9.593 E33.81134
G1 X29.205 Y9.398 E33.82792
G1 X29.473 Y9.229 E33.84268
G1 X30.055 Y8.873 E33.87445
G1 X30.639 Y8.527 E33.90605
G1 X31.124 Y8.257 E33.9319
G1 X31.738 Y7.959 E33.96368
G1 X31.982 Y7.85 E33.97612
G1 X32.224 Y7.745 E33.98841
G1 X32.889 Y7.469 E34.02193
G1 X33.573 Y7.197 E34.05621
G1 X34.72 Y6.815 E34.1125
G1 X35.045 Y6.727 E34.12818
G1 X35.321 Y6.657 E34.14144
G1 X35.985 Y6.497 E34.17324
G1 X36.675 Y6.341 E34.20618
G1 X37.865 Y6.142 E34.26237
G1 X38.168 Y6.109 E34.27656
G1 X38.48 Y6.08 E34.29115
G1 X39.049 Y6.035 E34.31773
G1 X39.896 Y5.98 E34.35725
G1 X40.147 Y5.967 E34.36895
G1 X40.321 Y5.96 E34.37706
G1 X40.636 Y5.952 E34.39173
G1 X41.13 Y5.947 E34.41474
G1 X157.622 Y5.947 E39.83909
G1 X158.475 Y5.958 E39.87882
G1 X159.394 Y6.011 E39.92168
G1 X160.305 Y6.144 E39.96455
G1 X161.201 Y6.355 E40.00741
G1 X162.076 Y6.643 E40.05031
G1 X162.922 Y7.006 E40.09317
G1 X163.733 Y7.441 E40.13602
G1 X164.504 Y7.945 E40.17892
G1 X164.951 Y8.284 E40.20504
G1 X165.644 Y8.89 E40.24791
G1 X166.183 Y9.443 E40.28386
G1 X166.865 Y10.197 E40.3312
G1 X167.341 Y10.738 E40.36476
G1 X169.108 Y12.636 E40.48551
G1 X170.863 Y14.416 E40.6019
G1 X172.689 Y16.168 E40.71974
G1 X174.544 Y17.848 E40.83627
G1 X176.48 Y19.505 E40.95493
G1 X178.469 Y21.113 E41.07403
G1 X180.447 Y22.62 E41.18982
G1 X182.522 Y24.11 E41.30877
G1 X184.592 Y25.51 E41.42513
G1 X186.74 Y26.876 E41.54366
G1 X189.27 Y28.38 E41.68072
G1 X189.509 Y28.517 E41.69354
G1 X189.786 Y28.681 E41.70853
G1 X190.344 Y29.024 E41.73903
G1 X190.958 Y29.412 E41.77285
G1 X191.925 Y30.103 E41.82819
G1 X192.162 Y30.293 E41.84234
G1 X192.403 Y30.492 E41.85689
G1 X192.929 Y30.941 E41.88909
G1 X193.5 Y31.444 E41.92453
G1 X194.356 Y32.29 E41.98057
G1 X194.582 Y32.54 E41.99626
G1 X194.771 Y32.754 E42.00956
G1 X195.239 Y33.302 E42.04311
G1 X195.649 Y33.796 E42.07301
G1 X196.329 Y34.712 E42.12613
G1 X196.488 Y34.952 E42.13953
G1 X196.645 Y35.196 E42.15304
G1 X197.003 Y35.777 E42.18482
G1 X197.084 Y35.91 E42.19207
G1 X197.436 Y36.503 E42.22418
G1 X198.006 Y37.606 E42.28199
G1 X198.151 Y37.932 E42.29861
G1 X198.255 Y38.174 E42.31087
G1 X198.501 Y38.768 E42.34081
G1 X198.767 Y39.435 E42.37425
G1 X199.152 Y40.591 E42.43098
G1 X199.243 Y40.927 E42.44719
G1 X199.317 Y41.214 E42.46099
G1 X199.482 Y41.904 E42.49403
G1 X199.629 Y42.558 E42.52524
G1 X199.824 Y43.727 E42.58043
G1 X199.859 Y44.046 E42.59537
G1 X199.9 Y44.493 E42.61627
G1 X199.944 Y45.081 E42.64373
G1 X199.988 Y45.767 E42.67574
G1 X200.002 Y46.021 E42.68758
G1 X200.009 Y46.196 E42.69574
G1 X200.016 Y46.51 E42.71036
G1 X200.021 Y47.005 E42.73341
G1 X200.021 Y192.746 E49.51972
G1 X200.01 Y193.602 E49.55959
G1 X200.001 Y193.906 E49.57375
G1 X199.981 Y194.306 E49.5924
G1 X199.943 Y194.867 E49.61858
G1 X199.907 Y195.313 E49.63941
G1 X199.842 Y196.006 E49.67182
G1 X199.667 Y197.167 E49.7265
G1 X199.604 Y197.471 E49.74095
G1 X199.535 Y197.784 E49.75588
G1 X199.366 Y198.486 E49.7895
G1 X199.196 Y199.152 E49.8215
G1 X198.845 Y200.266 E49.87589
G1 X198.732 Y200.566 E49.89082
G1 X198.611 Y200.871 E49.9061
G1 X198.354 Y201.492 E49.93739
G1 X198.055 Y202.186 E49.97258
G1 X197.518 Y203.261 E50.02853
G1 X197.349 Y203.556 E50.04436
G1 X197.194 Y203.817 E50.0585
G1 X196.872 Y204.342 E50.08718
G1 X196.467 Y204.984 E50.12252
G1 X195.779 Y205.95 E50.17775
G1 X195.595 Y206.18 E50.19146
G1 X195.379 Y206.441 E50.20724
G1 X194.999 Y206.886 E50.23448
G1 X194.878 Y207.025 E50.24307
G1 X194.419 Y207.544 E50.27533
G1 X193.617 Y208.359 E50.32857
G1 X193.404 Y208.553 E50.34199
G1 X193.163 Y208.765 E50.35693
G1 X192.607 Y209.24 E50.39098
G1 X192.049 Y209.702 E50.42472
G1 X191.112 Y210.395 E50.47898
G1 X190.826 Y210.583 E50.49492
G1 X190.534 Y210.767 E50.51099
G1 X189.933 Y211.134 E50.54378
G1 X189.332 Y211.489 E50.57628
G1 X188.277 Y212.035 E50.6316
G1 X188.045 Y212.139 E50.64344
G1 X187.604 Y212.328 E50.66578
G1 X187.125 Y212.525 E50.6899
G1 X186.432 Y212.801 E50.72463
G1 X185.28 Y213.185 E50.78117
G1 X184.955 Y213.273 E50.79685
G1 X184.679 Y213.343 E50.81011
G1 X184.015 Y213.503 E50.84191
G1 X183.325 Y213.659 E50.87485
G1 X182.135 Y213.858 E50.93103
G1 X181.832 Y213.891 E50.94523
G1 X181.52 Y213.92 E50.95982
G1 X180.951 Y213.965 E50.9864
G1 X180.104 Y214.02 E51.02592
G1 X179.853 Y214.033 E51.03762
G1 X179.679 Y214.04 E51.04573
G1 X179.364 Y214.048 E51.0604
G1 X178.871 Y214.053 E51.08336
G1 X62.378 Y214.053 E56.50776
G1 X61.524 Y214.042 E56.54753
G1 X60.605 Y213.989 E56.59039
G1 X59.694 Y213.856 E56.63326
G1 X58.798 Y213.645 E56.67613
G1 X57.924 Y213.357 E56.71898
G1 X57.077 Y212.994 E56.76189
G1 X56.266 Y212.559 E56.80474
G1 X55.495 Y212.055 E56.84763
G1 X54.771 Y211.487 E56.89048
G1 X53.828 Y210.569 E56.95176
G1 X53.107 Y209.774 E57.00173
G1 X52.619 Y209.218 E57.03618
G1 X50.924 Y207.396 E57.15206
G1 X49.12 Y205.568 E57.27165
G1 X47.311 Y203.832 E57.38839
G1 X45.447 Y202.143 E57.50552
G1 X43.544 Y200.514 E57.62216
G1 X41.544 Y198.898 E57.74189
G1 X39.555 Y197.382 E57.85835
G1 X37.48 Y195.892 E57.9773
G1 X35.401 Y194.485 E58.09419
G1 X33.26 Y193.124 E58.21232
G1 X30.73 Y191.62 E58.34937
G1 X30.491 Y191.483 E58.3622
G1 X30.214 Y191.319 E58.37719
G1 X29.656 Y190.976 E58.40769
G1 X29.042 Y190.588 E58.44151
G1 X28.075 Y189.897 E58.49685
G1 X27.838 Y189.707 E58.511
G1 X27.597 Y189.508 E58.52555
G1 X27.078 Y189.065 E58.55732
G1 X26.514 Y188.569 E58.59229
G1 X25.661 Y187.729 E58.64804
G1 X25.428 Y187.472 E58.66419
G1 X25.221 Y187.236 E58.67881
G1 X24.76 Y186.695 E58.71191
G1 X24.341 Y186.19 E58.74246
G1 X23.644 Y185.248 E58.79703
G1 X23.494 Y185.02 E58.80974
G1 X23.355 Y184.804 E58.8217
G1 X22.997 Y184.223 E58.85347
G1 X22.916 Y184.09 E58.86072
G1 X22.564 Y183.497 E58.89284
G1 X21.996 Y182.399 E58.9504
G1 X21.849 Y182.069 E58.96722
G1 X21.74 Y181.816 E58.98005
G1 X21.497 Y181.227 E59.00972
G1 X21.229 Y180.554 E59.04345
G1 X20.843 Y179.392 E59.10046
G1 X20.754 Y179.062 E59.11638
G1 X20.68 Y178.772 E59.13031
G1 X20.521 Y178.106 E59.1622
G1 X20.372 Y177.446 E59.1937
G1 X20.174 Y176.253 E59.25001
G1 X20.14 Y175.939 E59.26472
G1 X20.112 Y175.648 E59.27833
G1 X20.056 Y174.926 E59.31205
G1 X20.011 Y174.231 E59.34448
G1 X19.996 Y173.929 E59.35856
G1 X19.99 Y173.763 E59.3663
G1 X19.984 Y173.49 E59.37901
G1 X19.979 Y172.996 E59.40202
G1 X19.979 Y27.254 E66.18838
G1 X19.99 Y26.397 E66.22828
G1 X19.999 Y26.09 E66.24259
G1 X20.005 Y25.951 E66.24906
G1 X20.019 Y25.694 E66.26105
G1 X20.057 Y25.133 E66.28723
G1 X20.078 Y24.861 E66.29993
G1 X20.158 Y23.996 E66.34038
G1 X20.345 Y22.771 E66.39809
G1 X20.423 Y22.405 E66.41551
G1 X20.484 Y22.135 E66.4284
G1 X20.634 Y21.514 E66.45815
G1 X20.804 Y20.848 E66.49015
G1 X21.155 Y19.734 E66.54454
G1 X21.268 Y19.434 E66.55947
G1 X21.367 Y19.18 E66.57216
G1 X21.667 Y18.458 E66.60857
G1 X21.947 Y17.809 E66.64148
G1 X22.482 Y16.739 E66.69719
G1 X22.651 Y16.444 E66.71302
G1 X22.806 Y16.183 E66.72715
G1 X23.132 Y15.651 E66.7562
G1 X23.539 Y15.007 E66.79168
G0 F6000 X23.878 Y15.221
G1 F900 X24.528 Y14.307 E66.8439
G1 X24.71 Y14.079 E66.85749
G1 X24.925 Y13.819 E66.8732
G1 X25.334 Y13.34 E66.90253
G1 X25.452 Y13.204 E66.91091
G1 X25.882 Y12.718 E66.94113
G1 X26.67 Y11.92 E66.99335
G1 X26.895 Y11.716 E67.00749
G1 X27.117 Y11.521 E67.02125
G1 X27.648 Y11.068 E67.05375
G1 X28.206 Y10.606 E67.08748
G1 X29.126 Y9.928 E67.1407
G1 X29.424 Y9.733 E67.15728
G1 X29.682 Y9.57 E67.17149
G1 X30.259 Y9.218 E67.20296
G1 X30.843 Y8.872 E67.23457
G1 X31.31 Y8.611 E67.25948
G1 X31.901 Y8.324 E67.29007
G1 X32.145 Y8.215 E67.30252
G1 X32.378 Y8.114 E67.31434
