;FLAVOR:Marlin
;TIME:27665
;Filament used: 27.2704m
;Layer height: 0.28
;MINX:32.325
;MINY:18.06
;MINZ:0.28
;MAXX:202.69
;MAXY:206.94
;MAXZ:9.8
;Generated with Cura_SteamEngine 4.8.0
M82 ;absolute extrusion mode
; Ender 3 Custom Start G-code
G92 E0 ; Reset Extruder
M140 S70 ;set bed temperature
M104 T0 S260.0 ;set hotend temperature
G28 ; Home all axes
G29 ; BLTouch
M190 S70 ;wait for bed temperature

G1 Z2.0 F3000 ; Move Z Axis up little to prevent scratching of Heat Bed
G1 X0.1 Y20 Z0.3 F5000.0 ; Move to start position
G1 X0.1 Y200.0 Z0.3 F1500.0 E15 ; Draw the first line
G1 X0.4 Y200.0 Z0.3 F5000.0 ; Move to side a little
G1 X0.4 Y20 Z0.3 F1500.0 E30 ; Draw the second line
G92 E0 ; Reset Extruder
G1 Z2.0 F3000 ; Move Z Axis up little to prevent scratching of Heat Bed
G1 X5 Y20 Z0.3 F5000.0 ; Move over to prevent blob squish
G92 E0
G92 E0
G1 F1500 E-6.5
;LAYER_COUNT:35
;LAYER:0
M107
G0 F6000 X53.313 Y27.526 Z0.28
;TYPE:SKIRT
G1 F1500 E0
G1 F900 X53.749 Y26.696 E0.04366
G1 X54.254 Y25.905 E0.08735
G1 X54.825 Y25.161 E0.13103
G1 X55.482 Y24.444 E0.17631
G1 X55.595 Y24.331 E0.18375
G1 X56.286 Y23.697 E0.22742
G1 X57.028 Y23.123 E0.2711
G1 X57.817 Y22.616 E0.31477
G1 X58.645 Y22.177 E0.35841
G1 X59.509 Y21.81 E0.40212
G1 X60.4 Y21.518 E0.44578
G1 X61.313 Y21.304 E0.48944
G1 X62.672 Y21.131 E0.55324
G1 X64.066 Y21.042 E0.61828
G1 X66.258 Y20.876 E0.72064
G1 X68.792 Y20.613 E0.83927
G1 X71.326 Y20.279 E0.95828
G1 X73.756 Y19.888 E1.07289
G1 X76.247 Y19.415 E1.19095
G1 X78.714 Y18.873 E1.30856
G1 X80.114 Y18.526 E1.37573
G1 X80.79 Y18.366 E1.40807
G1 X81.711 Y18.189 E1.45174
G1 X82.954 Y18.076 E1.50986
G1 X83.192 Y18.068 E1.52095
G1 X83.476 Y18.062 E1.53418
G1 X83.732 Y18.06 E1.5461
G1 X184.067 Y18.06 E6.21812
G1 X184.739 Y18.068 E6.24941
G1 X185.44 Y18.1 E6.28209
G1 X186.475 Y18.18 E6.33042
G1 X186.862 Y18.217 E6.34853
G1 X187.278 Y18.264 E6.36802
G1 X188.205 Y18.408 E6.4117
G1 X189.052 Y18.614 E6.45229
G1 X189.945 Y18.868 E6.49552
G1 X190.302 Y18.976 E6.51289
G1 X190.778 Y19.129 E6.53617
G1 X191.658 Y19.453 E6.57984
G1 X192.147 Y19.672 E6.60479
G1 X192.554 Y19.874 E6.62594
G1 X193.071 Y20.143 E6.65308
G1 X193.324 Y20.279 E6.66646
G1 X193.927 Y20.613 E6.69855
G1 X194.727 Y21.101 E6.74219
G1 X195.478 Y21.653 E6.78559
G1 X196.023 Y22.09 E6.81812
G1 X196.271 Y22.295 E6.8331
G1 X196.788 Y22.735 E6.86471
G1 X197.476 Y23.373 E6.9084
G1 X197.912 Y23.84 E6.93815
G1 X198.18 Y24.149 E6.9572
G1 X198.495 Y24.525 E6.98004
G1 X198.661 Y24.728 E6.99225
G1 X199.119 Y25.302 E7.02644
G1 X199.672 Y26.06 E7.07013
G1 X200.142 Y26.831 E7.11218
G1 X200.459 Y27.403 E7.14263
G1 X200.6 Y27.666 E7.15653
G1 X200.924 Y28.29 E7.18926
G1 X201.321 Y29.14 E7.23295
G1 X201.65 Y30.041 E7.27761
G1 X201.855 Y30.689 E7.30926
G1 X201.942 Y30.978 E7.32331
G1 X202.113 Y31.575 E7.35223
G1 X202.332 Y32.487 E7.3959
G1 X202.464 Y33.329 E7.43559
G1 X202.552 Y34.083 E7.47094
G1 X202.585 Y34.41 E7.48624
G1 X202.638 Y35.023 E7.51489
G1 X202.675 Y35.683 E7.54567
G1 X202.686 Y36.103 E7.56524
G1 X202.69 Y36.391 E7.57865
G1 X202.689 Y188.481 E14.6606
G1 X202.682 Y189.004 E14.68495
G1 X202.65 Y189.708 E14.71777
G1 X202.57 Y190.739 E14.76592
G1 X202.522 Y191.224 E14.78861
G1 X202.476 Y191.582 E14.80542
G1 X202.405 Y192.066 E14.8282
G1 X202.12 Y193.413 E14.89231
G1 X202.01 Y193.8 E14.91104
G1 X201.905 Y194.149 E14.92801
G1 X201.625 Y195.025 E14.97083
G1 X201.3 Y195.905 E15.01452
G1 X201.015 Y196.531 E15.04654
G1 X200.86 Y196.837 E15.06252
G1 X200.582 Y197.369 E15.09047
G1 X200.455 Y197.605 E15.10295
G1 X200.152 Y198.152 E15.13206
G1 X199.753 Y198.817 E15.16818
G1 X199.714 Y198.877 E15.17151
G1 X199.062 Y199.777 E15.22326
G1 X198.663 Y200.273 E15.2529
G1 X198.476 Y200.499 E15.26656
G1 X198.025 Y201.03 E15.299
G1 X197.388 Y201.718 E15.34266
G1 X196.885 Y202.187 E15.37468
G1 X196.646 Y202.393 E15.38937
G1 X196.245 Y202.73 E15.41376
G1 X196.014 Y202.919 E15.42766
G1 X195.443 Y203.373 E15.46163
G1 X194.685 Y203.925 E15.50529
G1 X193.928 Y204.385 E15.54654
G1 X193.318 Y204.723 E15.57901
G1 X193.018 Y204.883 E15.59484
G1 X192.423 Y205.189 E15.626
G1 X191.571 Y205.582 E15.66969
G1 X190.738 Y205.886 E15.71098
G1 X190.096 Y206.091 E15.74236
G1 X189.763 Y206.191 E15.75855
G1 X189.117 Y206.375 E15.78983
G1 X188.205 Y206.593 E15.83349
G1 X187.648 Y206.687 E15.85979
G1 X187.178 Y206.749 E15.88187
G1 X186.68 Y206.804 E15.9052
G1 X186.398 Y206.831 E15.91839
G1 X185.676 Y206.892 E15.95213
G1 X185.006 Y206.928 E15.98337
G1 X184.619 Y206.937 E16.0014
G1 X184.363 Y206.94 E16.01332
G1 X43.973 Y206.939 E22.55046
G1 X43.271 Y206.929 E22.58315
G1 X42.335 Y206.876 E22.62681
G1 X41.407 Y206.743 E22.67046
G1 X40.493 Y206.531 E22.71415
G1 X39.6 Y206.243 E22.75784
G1 X38.736 Y205.879 E22.8015
G1 X37.905 Y205.443 E22.8452
G1 X37.115 Y204.938 E22.88885
G1 X36.371 Y204.368 E22.9325
G1 X35.678 Y203.736 E22.97617
G1 X35.041 Y203.047 E23.01986
G1 X34.465 Y202.307 E23.06353
G1 X33.996 Y201.589 E23.10346
G1 X33.888 Y201.409 E23.11324
G1 X33.44 Y200.585 E23.15691
G1 X33.064 Y199.726 E23.20057
G1 X32.762 Y198.838 E23.24425
G1 X32.538 Y197.928 E23.28789
G1 X32.391 Y197.001 E23.33159
G1 X32.325 Y196.066 E23.37524
G1 X32.338 Y195.128 E23.41892
G1 X32.431 Y194.195 E23.46258
G1 X32.526 Y193.632 E23.48916
G1 X32.578 Y193.367 E23.50174
G1 X32.674 Y192.927 E23.52271
G1 X49.784 Y121.5 E26.94274
G1 X50.351 Y118.97 E27.06347
G1 X50.841 Y116.468 E27.18219
G1 X51.244 Y114.03 E27.29725
G1 X51.588 Y111.507 E27.41582
G1 X51.861 Y108.993 E27.53357
G1 X52.056 Y106.538 E27.64825
G1 X52.187 Y103.997 E27.76672
G1 X52.25 Y100.592 E27.9253
G1 X52.251 Y45.152 E30.50682
G1 X52.266 Y44.147 E30.55362
G1 X52.334 Y41.744 E30.66556
G1 X52.334 Y39.253 E30.78155
G1 X52.262 Y36.637 E30.90341
G1 X52.25 Y35.681 E30.94793
G1 X52.251 Y32.743 E31.08473
G1 X52.261 Y32.061 E31.11649
G1 X52.315 Y31.124 E31.1602
G1 X52.448 Y30.196 E31.20385
G1 X52.66 Y29.282 E31.24754
G1 X52.949 Y28.39 E31.2912
G1 X53.313 Y27.526 E31.33486
G0 F6000 X53.711 Y27.62
G1 F900 X54.146 Y26.809 E31.37771
G1 X54.65 Y26.039 E31.42056
G1 X55.219 Y25.315 E31.46344
G1 X55.765 Y24.727 E31.5008
G1 X55.878 Y24.614 E31.50825
G1 X56.556 Y23.992 E31.55109
G1 X57.286 Y23.431 E31.59396
G1 X58.062 Y22.935 E31.63684
G1 X58.878 Y22.509 E31.67971
G1 X59.728 Y22.155 E31.72258
G1 X60.606 Y21.877 E31.76546
G1 X61.504 Y21.675 E31.80832
G1 X62.698 Y21.531 E31.86432
G1 X63.965 Y21.45 E31.92344
G1 X66.326 Y21.271 E32.03369
G1 X68.853 Y21.009 E32.15199
G1 X71.336 Y20.682 E32.26861
G1 X73.851 Y20.277 E32.38723
G1 X76.343 Y19.804 E32.50534
G1 X78.782 Y19.268 E32.62162
G1 X80.207 Y18.915 E32.68998
G1 X80.883 Y18.755 E32.72232
G1 X81.787 Y18.582 E32.76518
G1 X82.968 Y18.476 E32.8204
G1 X83.206 Y18.468 E32.83148
G1 X83.479 Y18.462 E32.8442
G1 X83.735 Y18.46 E32.85612
G1 X184.067 Y18.46 E37.528
G1 X184.733 Y18.468 E37.55901
G1 X185.409 Y18.499 E37.59052
G1 X186.444 Y18.579 E37.63886
G1 X186.817 Y18.614 E37.65631
G1 X187.233 Y18.661 E37.6758
G1 X188.143 Y18.804 E37.71869
G1 X188.943 Y18.998 E37.75702
G1 X189.836 Y19.252 E37.80025
G1 X190.18 Y19.356 E37.81699
G1 X190.656 Y19.509 E37.84027
G1 X191.519 Y19.829 E37.88313
G1 X191.975 Y20.033 E37.90639
G1 X192.37 Y20.229 E37.92692
G1 X192.887 Y20.498 E37.95406
G1 X193.13 Y20.628 E37.96689
G1 X193.733 Y20.962 E37.99899
G1 X194.518 Y21.443 E38.04186
G1 X195.228 Y21.965 E38.08289
G1 X195.773 Y22.402 E38.11542
G1 X196.012 Y22.6 E38.12987
G1 X196.529 Y23.04 E38.16149
G1 X197.204 Y23.666 E38.20435
G1 X197.612 Y24.104 E38.23223
G1 X197.873 Y24.406 E38.25081
G1 X198.188 Y24.782 E38.27365
G1 X198.349 Y24.978 E38.28546
G1 X198.807 Y25.552 E38.31966
G1 X199.349 Y26.296 E38.36252
G1 X199.792 Y27.025 E38.40224
G1 X200.109 Y27.597 E38.43269
G1 X200.245 Y27.85 E38.44607
G1 X200.569 Y28.474 E38.47881
G1 X200.958 Y29.309 E38.5217
G1 X201.268 Y30.162 E38.56396
G1 X201.473 Y30.81 E38.59561
G1 X201.557 Y31.088 E38.60913
G1 X201.728 Y31.685 E38.63805
G1 X201.943 Y32.58 E38.68091
G1 X202.067 Y33.375 E38.71837
G1 X202.155 Y34.129 E38.75372
G1 X202.187 Y34.445 E38.76851
G1 X202.24 Y35.058 E38.79716
G1 X202.275 Y35.693 E38.82677
G1 X202.286 Y36.113 E38.84634
G1 X202.29 Y36.391 E38.85928
G1 X202.289 Y188.476 E45.941
G1 X202.282 Y188.999 E45.96535
G1 X202.251 Y189.677 E45.99696
G1 X202.171 Y190.708 E46.04511
G1 X202.124 Y191.179 E46.06715
G1 X202.08 Y191.523 E46.0833
G1 X202.009 Y192.007 E46.10608
G1 X201.734 Y193.306 E46.1679
G1 X201.627 Y193.685 E46.18624
G1 X201.522 Y194.034 E46.20321
G1 X201.244 Y194.903 E46.2457
G1 X200.925 Y195.766 E46.28854
G1 X200.656 Y196.354 E46.31865
G1 X200.506 Y196.652 E46.33418
G1 X200.228 Y197.184 E46.36213
G1 X200.105 Y197.411 E46.37416
G1 X199.802 Y197.958 E46.40327
G1 X199.418 Y198.599 E46.43807
G1 X199.379 Y198.659 E46.4414
G1 X198.75 Y199.526 E46.49128
G1 X198.351 Y200.022 E46.52092
G1 X198.171 Y200.24 E46.53408
G1 X197.72 Y200.771 E46.56652
G1 X197.094 Y201.446 E46.60939
G1 X196.621 Y201.886 E46.63947
G1 X196.389 Y202.087 E46.65376
G1 X195.988 Y202.424 E46.67815
G1 X195.765 Y202.606 E46.69156
G1 X195.194 Y203.06 E46.72552
G1 X194.449 Y203.601 E46.7684
G1 X193.734 Y204.035 E46.80734
G1 X193.124 Y204.373 E46.83982
G1 X192.835 Y204.527 E46.85506
G1 X192.24 Y204.833 E46.88622
G1 X191.404 Y205.219 E46.9291
G1 X190.616 Y205.505 E46.96813
G1 X189.974 Y205.71 E46.99951
G1 X189.654 Y205.807 E47.01508
G1 X189.008 Y205.991 E47.04636
G1 X188.112 Y206.204 E47.08924
G1 X187.592 Y206.291 E47.11379
G1 X187.458 Y206.31 E47.12009
G1 X187.134 Y206.351 E47.1353
G1 X186.636 Y206.406 E47.15863
G1 X186.364 Y206.432 E47.17135
G1 X185.642 Y206.493 E47.20509
G1 X184.996 Y206.528 E47.23522
G1 X184.609 Y206.537 E47.25324
G1 X184.363 Y206.54 E47.2647
G1 X43.979 Y206.539 E53.80157
G1 X43.277 Y206.529 E53.83426
G1 X42.358 Y206.476 E53.87712
G1 X41.447 Y206.343 E53.91999
G1 X40.551 Y206.132 E53.96285
G1 X39.676 Y205.844 E54.00575
G1 X38.83 Y205.481 E54.04861
G1 X38.019 Y205.046 E54.09147
G1 X37.248 Y204.542 E54.13436
G1 X36.524 Y203.974 E54.17721
G1 X35.852 Y203.344 E54.2201
G1 X35.238 Y202.659 E54.26293
G1 X34.685 Y201.923 E54.3058
G1 X34.339 Y201.384 E54.33562
G1 X34.231 Y201.204 E54.3454
G1 X33.792 Y200.394 E54.3883
G1 X33.425 Y199.55 E54.43115
G1 X33.132 Y198.677 E54.47403
G1 X32.917 Y197.782 E54.51689
G1 X32.78 Y196.872 E54.55975
G1 X32.722 Y195.953 E54.60262
G1 X32.744 Y195.032 E54.64552
G1 X32.918 Y193.709 E54.70766
G1 X32.97 Y193.444 E54.72023
G1 X33.063 Y193.02 E54.74044
G1 X50.167 Y121.616 E58.15937
G1 X50.74 Y119.064 E58.28116
G1 X51.24 Y116.511 E58.4023
G1 X51.641 Y114.078 E58.51712
G1 X51.985 Y111.568 E58.63509
G1 X52.256 Y109.069 E58.75213
G1 X52.458 Y106.516 E58.87138
G1 X52.586 Y104.025 E58.98753
G1 X52.65 Y100.6 E59.14704
G1 X52.651 Y45.157 E61.72869
G1 X52.666 Y44.158 E61.77522
G1 X52.734 Y41.755 E61.88716
G1 X52.734 Y39.242 E62.00417
G1 X52.662 Y36.632 E62.12575
G1 X52.65 Y35.681 E62.17004
G1 X52.651 Y32.749 E62.30656
G1 X52.661 Y32.067 E62.33832
G1 X52.715 Y31.147 E62.38124
G1 X52.848 Y30.237 E62.42406
G1 X53.059 Y29.34 E62.46697
G1 X53.348 Y28.466 E62.50983
G1 X53.711 Y27.62 E62.5527
G0 F6000 X54.109 Y27.717
G1 F900 X54.543 Y26.925 E62.59475
G1 X55.046 Y26.175 E62.6368
G1 X55.613 Y25.472 E62.67886
G1 X56.048 Y25.01 E62.7084
G1 X56.161 Y24.897 E62.71584
G1 X56.827 Y24.287 E62.7579
G1 X57.544 Y23.738 E62.79995
G1 X58.308 Y23.256 E62.84201
G1 X59.111 Y22.842 E62.88408
G1 X59.947 Y22.502 E62.9261
G1 X60.81 Y22.236 E62.96815
G1 X61.693 Y22.048 E63.01019
G1 X62.723 Y21.93 E63.05847
G1 X64.012 Y21.848 E63.11861
G1 X66.361 Y21.669 E63.22831
G1 X68.91 Y21.406 E63.34763
G1 X71.38 Y21.08 E63.46364
G1 X73.923 Y20.671 E63.58357
G1 X76.424 Y20.196 E63.70211
G1 X78.866 Y19.659 E63.81854
G1 X80.299 Y19.304 E63.88728
G1 X80.975 Y19.144 E63.91963
G1 X81.862 Y18.975 E63.96167
G1 X82.981 Y18.876 E64.01398
G1 X83.482 Y18.862 E64.03732
G1 X83.738 Y18.86 E64.04924
G1 X184.067 Y18.86 E68.72098
G1 X184.728 Y18.868 E68.75176
G1 X185.378 Y18.897 E68.78206
G1 X186.413 Y18.977 E68.8304
G1 X186.772 Y19.011 E68.84719
G1 X187.188 Y19.058 E68.86668
G1 X188.08 Y19.199 E68.90873
G1 X188.834 Y19.383 E68.94487
G1 X189.727 Y19.637 E68.9881
G1 X190.057 Y19.737 E69.00416
G1 X190.533 Y19.89 E69.02744
G1 X191.38 Y20.204 E69.0695
G1 X191.803 Y20.394 E69.0911
G1 X192.185 Y20.584 E69.11096
G1 X192.702 Y20.853 E69.1381
G1 X192.936 Y20.978 E69.15045
G1 X193.539 Y21.312 E69.18255
G1 X194.309 Y21.784 E69.2246
G1 X194.978 Y22.277 E69.2633
G1 X195.523 Y22.714 E69.29583
G1 X195.753 Y22.904 E69.30972
G1 X196.27 Y23.344 E69.34133
G1 X196.931 Y23.959 E69.38337
G1 X197.312 Y24.368 E69.4094
G1 X197.567 Y24.663 E69.42756
G1 X197.882 Y25.039 E69.4504
G1 X198.036 Y25.227 E69.46171
G1 X198.494 Y25.801 E69.49591
G1 X199.025 Y26.531 E69.53794
G1 X199.443 Y27.219 E69.57543
G1 X199.76 Y27.791 E69.60588
G1 X199.89 Y28.035 E69.61875
G1 X200.214 Y28.659 E69.65149
G1 X200.595 Y29.478 E69.69355
G1 X200.887 Y30.282 E69.73338
G1 X201.092 Y30.93 E69.76503
G1 X201.173 Y31.198 E69.77807
G1 X201.344 Y31.795 E69.80698
G1 X201.554 Y32.674 E69.84906
G1 X201.669 Y33.422 E69.8843
G1 X201.757 Y34.176 E69.91965
G1 X201.788 Y34.479 E69.93383
G1 X201.841 Y35.092 E69.96248
G1 X201.876 Y35.704 E69.99103
G1 X201.887 Y36.124 E70.01059
G1 X201.89 Y36.391 E70.02303
G1 X201.889 Y188.471 E77.10451
G1 X201.882 Y188.994 E77.12886
G1 X201.852 Y189.646 E77.15925
G1 X201.772 Y190.677 E77.20741
G1 X201.738 Y191.037 E77.22424
G1 X201.684 Y191.465 E77.24433
G1 X201.613 Y191.949 E77.26711
G1 X201.349 Y193.199 E77.3266
G1 X201.244 Y193.57 E77.34455
G1 X201.139 Y193.919 E77.36152
G1 X200.863 Y194.78 E77.40362
G1 X200.549 Y195.627 E77.44569
G1 X200.298 Y196.176 E77.4738
G1 X200.151 Y196.467 E77.48898
G1 X199.873 Y196.999 E77.51693
G1 X199.756 Y197.217 E77.52845
G1 X199.453 Y197.764 E77.55757
G1 X199.082 Y198.381 E77.59109
G1 X199.043 Y198.441 E77.59442
G1 X198.439 Y199.275 E77.64237
G1 X198.04 Y199.771 E77.67201
G1 X197.866 Y199.981 E77.68471
G1 X197.415 Y200.512 E77.71715
G1 X196.801 Y201.174 E77.75919
G1 X196.358 Y201.585 E77.78733
G1 X196.131 Y201.781 E77.8013
G1 X195.73 Y202.118 E77.82569
G1 X195.516 Y202.293 E77.83856
G1 X194.945 Y202.747 E77.87253
G1 X194.214 Y203.277 E77.91457
G1 X193.541 Y203.685 E77.95122
G1 X192.931 Y204.023 E77.98369
G1 X192.652 Y204.172 E77.99842
G1 X192.057 Y204.478 E78.02958
G1 X191.236 Y204.855 E78.07164
G1 X190.495 Y205.124 E78.10835
G1 X189.853 Y205.329 E78.13973
G1 X189.544 Y205.422 E78.15476
G1 X188.898 Y205.606 E78.18603
G1 X188.019 Y205.815 E78.2281
G1 X187.536 Y205.895 E78.2509
G1 X187.402 Y205.914 E78.2572
G1 X187.09 Y205.953 E78.27184
G1 X186.592 Y206.008 E78.29517
G1 X186.331 Y206.034 E78.30739
G1 X185.609 Y206.095 E78.34113
G1 X184.987 Y206.128 E78.37013
G1 X184.6 Y206.137 E78.38816
G1 X184.363 Y206.14 E78.39919
G1 X43.985 Y206.139 E84.93578
G1 X43.283 Y206.129 E84.96847
G1 X42.381 Y206.076 E85.01055
G1 X41.488 Y205.944 E85.05258
G1 X40.61 Y205.733 E85.09463
G1 X39.754 Y205.445 E85.13668
G1 X38.926 Y205.083 E85.17876
G1 X38.134 Y204.649 E85.22081
G1 X37.384 Y204.146 E85.26286
G1 X36.681 Y203.58 E85.30489
G1 X36.031 Y202.953 E85.34694
G1 X35.439 Y202.271 E85.38899
G1 X34.682 Y201.178 E85.4509
G1 X34.574 Y200.998 E85.46068
G1 X34.144 Y200.204 E85.50272
G1 X33.786 Y199.375 E85.54477
G1 X33.502 Y198.517 E85.58685
G1 X33.296 Y197.638 E85.62889
G1 X33.169 Y196.744 E85.67094
G1 X33.12 Y195.842 E85.713
G1 X33.152 Y194.939 E85.75508
G1 X33.311 Y193.786 E85.80927
G1 X33.363 Y193.521 E85.82185
G1 X33.452 Y193.113 E85.84129
G1 X50.551 Y121.732 E89.25912
G1 X51.138 Y119.114 E89.38406
G1 X51.626 Y116.62 E89.50239
G1 X52.039 Y114.12 E89.62038
G1 X52.379 Y111.633 E89.73726
G1 X52.657 Y109.073 E89.85716
G1 X52.856 Y106.57 E89.97408
G1 X52.986 Y104.022 E90.09288
G1 X53.05 Y100.607 E90.25193
G1 X53.051 Y45.163 E92.83363
G1 X53.066 Y44.169 E92.87992
G1 X53.134 Y41.766 E92.99186
G1 X53.134 Y39.23 E93.10995
G1 X53.062 Y36.626 E93.23125
G1 X53.05 Y35.681 E93.27525
G1 X53.051 Y32.754 E93.41155
G1 X53.061 Y32.072 E93.44331
G1 X53.114 Y31.171 E93.48533
G1 X53.247 Y30.278 E93.52737
G1 X53.458 Y29.4 E93.56942
G1 X53.746 Y28.544 E93.61148
G1 X54.109 Y27.717 E93.65353
G1 F1500 E87.15353
G0 F6000 X69.318 Y35.808
G0 X69.506 Y35.9
